(.../system/eagle/PCB_Gcode/pcb-gcode.ulp)
(Copyright 2005 - 2012 by John Johnson)
(See readme.txt for licensing terms.)
(This file generated from the board:)
(.../RotaryEncoderBoard/RotaryEncoderBoard.brd)
(Current profile is .../PCB_Gcode/profiles/generic.pp  )
(This file generated 21/05/2016 18:56)
(Settings from pcb-machine.h)
(spindle on time = 4.0000)
(spindle speed = 20000.0000)
(tool change at 0.0000 0.0000 25.4000 )
(feed rate xy = F0.00  )
(feed rate z  = F508.00 )
(Z Axis Settings)
(  High     Up        Down     Drill)
(12.7000 	2.5400 	-0.1778 	-0.8128 )
(Settings from pcb-defaults.h)
(isolate min = 0.0254)
(isolate max = 0.5080)
(isolate step = 0.1270)
(Generated top outlines, top drill, )
(Unit of measure: mm)
M06 (somakit already!)
( Tool|       Size       |  Min Sub |  Max Sub |   Count )
( T01  0.813mm 0.0320in 0.0000in 0.0000in )
( T02  1.000mm 0.0394in 0.0000in 0.0000in )
( T03  1.016mm 0.0400in 0.0000in 0.0000in )
( T04  3.000mm 0.1181in 0.0000in 0.0000in )
( T05  4.000mm 0.1575in 0.0000in 0.0000in )
( T06  6.000mm 0.2362in 0.0000in 0.0000in )
(Metric Mode)
G21
(Absolute Coordinates)
G90
S20000
G00 Z12.7000 
G00 X0.0000 Y0.0000 
M03
G04 P4.000000
M05
G00 Z25.4000 
M06 T01  ; 0.8128 
G01 Z0.0000 F508.00 
M06 
G00 Z2.5400 
M03
G04 P4.000000
G00 Z2.540000
G00 X9.1900 Y33.0000 
G01 Z-0.8128 F508.00 
G01 Z2.540000
(R2.5400  P1.000000)
G00 X9.1900 Y36.0000 
G01 Z-0.812800
G01 Z2.540000
G00 X9.1900 Y39.0000 
G01 Z-0.812800
G01 Z2.540000
G00 X16.8100 Y39.0000 
G01 Z-0.812800
G01 Z2.540000
G00 X16.8100 Y36.0000 
G01 Z-0.812800
G01 Z2.540000
G00 X16.8100 Y33.0000 
G01 Z-0.812800
G01 Z2.540000
G00 X30.4800 Y22.5900 
G01 Z-0.812800
G01 Z2.540000
G00 X35.4800 Y22.8900 
G01 Z-0.812800
G01 Z2.540000
G00 X40.4800 Y21.6200 
G01 Z-0.812800
G01 Z2.540000
G00 X40.4800 Y24.1600 
G01 Z-0.812800
G01 Z2.540000
G00 X40.4800 Y17.2400 
G01 Z-0.812800
G01 Z2.540000
G00 X40.4800 Y14.7000 
G01 Z-0.812800
G01 Z2.540000
G00 X35.4800 Y15.2700 
G01 Z-0.812800
G01 Z2.540000
G00 X30.4800 Y14.9700 
G01 Z-0.812800
G01 Z2.540000
M05
G00 Z25.4000 
G00 X0.0000 Y0.0000 
M06 T02  ; 1.0000 
G01 Z0.0000 F508.00 
M06 
G00 Z2.5400 
M03
G04 P4.000000
G00 Z2.540000
G00 X11.5100 Y17.5500 
G01 Z-0.8128 F508.00 
G01 Z2.540000
(R2.5400  P1.000000)
G00 X11.5100 Y22.5500 
G01 Z-0.812800
G01 Z2.540000
G00 X26.0100 Y22.5500 
G01 Z-0.812800
G01 Z2.540000
G00 X26.0100 Y20.0500 
G01 Z-0.812800
G01 Z2.540000
G00 X26.0100 Y17.5500 
G01 Z-0.812800
G01 Z2.540000
M05
G00 Z25.4000 
G00 X0.0000 Y0.0000 
M06 T03  ; 1.0160 
G01 Z0.0000 F508.00 
M06 
G00 Z2.5400 
M03
G04 P4.000000
G00 Z2.540000
G00 X16.3800 Y4.0000 
G01 Z-0.8128 F508.00 
G01 Z2.540000
(R2.5400  P1.000000)
G00 X18.9200 Y4.0000 
G01 Z-0.812800
G01 Z2.540000
G00 X21.4600 Y4.0000 
G01 Z-0.812800
G01 Z2.540000
G00 X24.0000 Y4.0000 
G01 Z-0.812800
G01 Z2.540000
G00 X26.5400 Y4.0000 
G01 Z-0.812800
G01 Z2.540000
G00 X29.0800 Y4.0000 
G01 Z-0.812800
G01 Z2.540000
G00 X31.6200 Y4.0000 
G01 Z-0.812800
G01 Z2.540000
M05
G00 Z25.4000 
G00 X0.0000 Y0.0000 
M06 T04  ; 3.0000 
G01 Z0.0000 F508.00 
M06 
G00 Z2.5400 
M03
G04 P4.000000
G00 Z2.540000
G00 X18.5100 Y14.0175 
G01 Z-0.8128 F508.00 
G01 Z2.540000
(R2.5400  P1.000000)
G00 X18.5100 Y26.0825 
G01 Z-0.812800
G01 Z2.540000
M05
G00 Z25.4000 
G00 X0.0000 Y0.0000 
M06 T05  ; 4.0000 
G01 Z0.0000 F508.00 
M06 
G00 Z2.5400 
M03
G04 P4.000000
G00 Z2.540000
G00 X53.0000 Y10.0000 
G01 Z-0.8128 F508.00 
G01 Z2.540000
(R2.5400  P1.000000)
M05
G00 Z25.4000 
G00 X0.0000 Y0.0000 
M06 T06  ; 6.0000 
G01 Z0.0000 F508.00 
M06 
G00 Z2.5400 
M03
G04 P4.000000
G00 Z2.540000
G00 X11.0000 Y10.0000 
G01 Z-0.8128 F508.00 
G01 Z2.540000
(R2.5400  P1.000000)
G00 X53.0000 Y32.0000 
G01 Z-0.812800
G01 Z2.540000
T01 
G00 Z12.7000 
M05
M02
