(.../system/eagle/PCB_Gcode/pcb-gcode.ulp)
(Copyright 2005 - 2012 by John Johnson)
(See readme.txt for licensing terms.)
(This file generated from the board:)
(.../RotaryEncoderBoard/RotaryEncoderBoard.brd)
(Current profile is .../PCB_Gcode/profiles/generic.pp  )
(This file generated 21/05/2016 18:55)
(Settings from pcb-machine.h)
(spindle on time = 4.0000)
(  Tool Size)
(0.1778 )
(spindle speed = 30000.0000)
(tool change at 0.0000 0.0000 25.4000 )
(feed rate xy = F200.00 )
(feed rate z  = F200.00 )
(Z Axis Settings)
(  High     Up        Down     Drill)
(12.7000 	2.5400 	-0.1778 	-0.8128 )
(Settings from pcb-defaults.h)
(isolate min = 0.0254)
(isolate max = 0.5080)
(isolate step = 0.1270)
(Generated top outlines, top drill, )
(Unit of measure: mm)
M06 (somakit already!)
(Metric Mode)
G21
(Absolute Coordinates)
G90
S30000
G00 Z12.7000 
G00 X0.0000 Y0.0000 
M03
G04 P4.000000
G00 Z2.5400 
G00 X0.9651 Y1.0242 
G01 Z-0.1778 F200.00 
G01 X0.9233 Y1.0966 F200.00 
G01 X0.9017 Y1.1774 
G01 X0.9017 Y42.8290 
G01 X0.9017 Y42.9126 
G01 X0.9233 Y42.9933 
G01 X0.9651 Y43.0657 
G01 X1.0242 Y43.1249 
G01 X1.0966 Y43.1667 
G01 X1.1774 Y43.1883 
G01 X64.9926 Y43.1883 
G01 X65.0734 Y43.1667 
G01 X65.1457 Y43.1249 
G01 X65.2049 Y43.0657 
G01 X65.2467 Y42.9933 
G01 X65.2683 Y42.9126 
G01 X65.2683 Y1.1774 
G01 X65.2467 Y1.0966 
G01 X65.2049 Y1.0242 
G01 X65.1457 Y0.9651 
G01 X65.0734 Y0.9233 
G01 X64.9926 Y0.9017 
G01 X1.1774 Y0.9017 
G01 X1.0966 Y0.9233 
G01 X1.0242 Y0.9651 
G01 X0.9651 Y1.0242 
G00 Z2.5400 
G00 X5.4218 Y3.1347 
G01 Z-0.1778 F200.00 
G01 X5.7970 Y2.9793 F200.00 
G01 X15.0119 Y2.9793 
G01 X15.0328 Y2.9820 
G01 X15.0536 Y2.9793 
G01 X15.0746 Y2.9793 
G01 X15.0948 Y2.9739 
G01 X15.1156 Y2.9711 
G01 X15.1350 Y2.9631 
G01 X15.1553 Y2.9577 
G01 X15.1735 Y2.9472 
G01 X15.1929 Y2.9391 
G01 X15.2095 Y2.9263 
G01 X15.2277 Y2.9159 
G01 X15.2425 Y2.9010 
G01 X15.2592 Y2.8882 
G01 X15.2720 Y2.8716 
G01 X15.2868 Y2.8567 
G01 X15.2973 Y2.8386 
G01 X15.3101 Y2.8219 
G01 X15.3181 Y2.8025 
G01 X15.3286 Y2.7843 
G01 X15.3340 Y2.7641 
G01 X15.4070 Y2.5879 
G01 X15.7299 Y2.2650 
G01 X16.1517 Y2.0903 
G01 X16.6083 Y2.0903 
G01 X17.0301 Y2.2650 
G01 X17.3530 Y2.5879 
G01 X17.3567 Y2.5970 
G01 X17.3727 Y2.6354 
G01 X17.3971 Y2.6673 
G01 X17.4235 Y2.7017 
G01 X17.4590 Y2.7289 
G01 X17.4899 Y2.7526 
G01 X17.5262 Y2.7677 
G01 X17.5671 Y2.7846 
G01 X17.5929 Y2.7880 
G01 X17.6500 Y2.7955 
G01 X17.7087 Y2.7878 
G01 X17.7329 Y2.7846 
G01 X17.7747 Y2.7673 
G01 X17.8101 Y2.7526 
G01 X17.8420 Y2.7282 
G01 X17.8764 Y2.7018 
G01 X17.9036 Y2.6663 
G01 X17.9273 Y2.6354 
G01 X17.9426 Y2.5985 
G01 X17.9470 Y2.5879 
G01 X18.2699 Y2.2650 
G01 X18.6917 Y2.0903 
G01 X19.1483 Y2.0903 
G01 X19.5701 Y2.2650 
G01 X19.8930 Y2.5879 
G01 X20.0177 Y2.8890 
G01 X20.0203 Y2.9014 
G01 X20.0336 Y2.9274 
G01 X20.0448 Y2.9545 
G01 X20.0526 Y2.9646 
G01 X20.0583 Y2.9758 
G01 X20.0779 Y2.9976 
G01 X20.0957 Y3.0209 
G01 X20.1058 Y3.0286 
G01 X20.1142 Y3.0380 
G01 X20.1388 Y3.0539 
G01 X20.1621 Y3.0718 
G01 X20.1737 Y3.0766 
G01 X20.1843 Y3.0835 
G01 X20.2122 Y3.0925 
G01 X20.2393 Y3.1037 
G01 X20.2518 Y3.1054 
G01 X20.2639 Y3.1093 
G01 X20.2931 Y3.1108 
G01 X20.3222 Y3.1147 
G01 X20.3347 Y3.1130 
G01 X20.3473 Y3.1137 
G01 X20.3760 Y3.1076 
G01 X20.4051 Y3.1037 
G01 X20.4168 Y3.0989 
G01 X20.4291 Y3.0963 
G01 X20.4552 Y3.0830 
G01 X20.4823 Y3.0718 
G01 X20.4923 Y3.0641 
G01 X20.5036 Y3.0583 
G01 X20.5254 Y3.0387 
G01 X20.5486 Y3.0209 
G01 X20.5563 Y3.0108 
G01 X20.5657 Y3.0024 
G01 X20.5817 Y2.9778 
G01 X20.5995 Y2.9545 
G01 X20.6043 Y2.9429 
G01 X20.6112 Y2.9323 
G01 X20.6203 Y2.9044 
G01 X20.6304 Y2.8801 
G01 X20.6888 Y2.7654 
G01 X20.7722 Y2.6506 
G01 X20.8726 Y2.5502 
G01 X20.9874 Y2.4668 
G01 X21.0917 Y2.4137 
G01 X21.0917 Y2.4421 
G01 X21.0449 Y2.4614 
G01 X20.9014 Y2.5573 
G01 X20.7793 Y2.6794 
G01 X20.6834 Y2.8229 
G01 X20.6174 Y2.9824 
G01 X20.5837 Y3.1517 
G01 X20.5837 Y4.8483 
G01 X20.6174 Y5.0176 
G01 X20.6834 Y5.1771 
G01 X20.7793 Y5.3206 
G01 X20.9014 Y5.4427 
G01 X21.0449 Y5.5386 
G01 X21.0917 Y5.5579 
G01 X21.0917 Y5.5863 
G01 X20.9874 Y5.5332 
G01 X20.8726 Y5.4498 
G01 X20.7722 Y5.3494 
G01 X20.6888 Y5.2346 
G01 X20.6304 Y5.1199 
G01 X20.6203 Y5.0956 
G01 X20.6112 Y5.0677 
G01 X20.6044 Y5.0571 
G01 X20.5995 Y5.0454 
G01 X20.5817 Y5.0222 
G01 X20.5657 Y4.9976 
G01 X20.5563 Y4.9892 
G01 X20.5486 Y4.9791 
G01 X20.5254 Y4.9613 
G01 X20.5036 Y4.9417 
G01 X20.4923 Y4.9359 
G01 X20.4823 Y4.9282 
G01 X20.4552 Y4.9170 
G01 X20.4291 Y4.9037 
G01 X20.4168 Y4.9011 
G01 X20.4051 Y4.8962 
G01 X20.3760 Y4.8924 
G01 X20.3473 Y4.8863 
G01 X20.3347 Y4.8870 
G01 X20.3222 Y4.8853 
G01 X20.2931 Y4.8892 
G01 X20.2639 Y4.8907 
G01 X20.2518 Y4.8946 
G01 X20.2393 Y4.8962 
G01 X20.2122 Y4.9075 
G01 X20.1843 Y4.9165 
G01 X20.1737 Y4.9234 
G01 X20.1621 Y4.9282 
G01 X20.1388 Y4.9461 
G01 X20.1142 Y4.9620 
G01 X20.1058 Y4.9714 
G01 X20.0957 Y4.9791 
G01 X20.0779 Y5.0024 
G01 X20.0583 Y5.0242 
G01 X20.0525 Y5.0354 
G01 X20.0449 Y5.0454 
G01 X20.0336 Y5.0725 
G01 X20.0203 Y5.0986 
G01 X20.0177 Y5.1110 
G01 X19.9728 Y5.2193 
G01 X19.9623 Y5.2375 
G01 X19.9569 Y5.2578 
G01 X19.9489 Y5.2772 
G01 X19.9461 Y5.2980 
G01 X19.9407 Y5.3182 
G01 X19.9407 Y5.3392 
G01 X19.9380 Y5.3601 
G01 X19.9407 Y5.3809 
G01 X19.9407 Y7.4075 
G01 X19.9623 Y7.4882 
G01 X20.0041 Y7.5606 
G01 X22.4077 Y9.9642 
G01 X22.4669 Y10.0234 
G01 X22.5392 Y10.0652 
G01 X22.6200 Y10.0868 
G01 X22.7036 Y10.0868 
G01 X22.7843 Y10.0652 
G01 X22.8567 Y10.0234 
G01 X22.9159 Y9.9642 
G01 X22.9577 Y9.8919 
G01 X22.9793 Y9.8111 
G01 X22.9793 Y5.3809 
G01 X22.9820 Y5.3601 
G01 X22.9793 Y5.3392 
G01 X22.9793 Y5.3182 
G01 X22.9739 Y5.2980 
G01 X22.9711 Y5.2772 
G01 X22.9631 Y5.2578 
G01 X22.9577 Y5.2375 
G01 X22.9472 Y5.2193 
G01 X22.9023 Y5.1110 
G01 X22.8997 Y5.0986 
G01 X22.8864 Y5.0725 
G01 X22.8751 Y5.0454 
G01 X22.8675 Y5.0354 
G01 X22.8617 Y5.0242 
G01 X22.8421 Y5.0024 
G01 X22.8243 Y4.9791 
G01 X22.8142 Y4.9714 
G01 X22.8058 Y4.9620 
G01 X22.7812 Y4.9461 
G01 X22.7579 Y4.9282 
G01 X22.7463 Y4.9234 
G01 X22.7356 Y4.9165 
G01 X22.7078 Y4.9074 
G01 X22.6807 Y4.8962 
G01 X22.6682 Y4.8946 
G01 X22.6561 Y4.8907 
G01 X22.6269 Y4.8892 
G01 X22.5978 Y4.8853 
G01 X22.5853 Y4.8870 
G01 X22.5727 Y4.8863 
G01 X22.5440 Y4.8924 
G01 X22.5149 Y4.8962 
G01 X22.5032 Y4.9011 
G01 X22.4909 Y4.9037 
G01 X22.4648 Y4.9170 
G01 X22.4377 Y4.9282 
G01 X22.4277 Y4.9359 
G01 X22.4164 Y4.9417 
G01 X22.3946 Y4.9613 
G01 X22.3714 Y4.9791 
G01 X22.3637 Y4.9892 
G01 X22.3543 Y4.9976 
G01 X22.3383 Y5.0222 
G01 X22.3205 Y5.0454 
G01 X22.3156 Y5.0571 
G01 X22.3088 Y5.0677 
G01 X22.2997 Y5.0956 
G01 X22.2896 Y5.1199 
G01 X22.2312 Y5.2346 
G01 X22.1478 Y5.3494 
G01 X22.0474 Y5.4498 
G01 X21.9326 Y5.5332 
G01 X21.8283 Y5.5863 
G01 X21.8283 Y5.5579 
G01 X21.8751 Y5.5386 
G01 X22.0186 Y5.4427 
G01 X22.1407 Y5.3206 
G01 X22.2366 Y5.1771 
G01 X22.3026 Y5.0176 
G01 X22.3363 Y4.8483 
G01 X22.3363 Y3.1517 
G01 X22.3026 Y2.9824 
G01 X22.2366 Y2.8229 
G01 X22.1407 Y2.6794 
G01 X22.0186 Y2.5573 
G01 X21.8751 Y2.4614 
G01 X21.8283 Y2.4421 
G01 X21.8283 Y2.4137 
G01 X21.9326 Y2.4668 
G01 X22.0474 Y2.5502 
G01 X22.1478 Y2.6506 
G01 X22.2312 Y2.7654 
G01 X22.2896 Y2.8801 
G01 X22.2997 Y2.9044 
G01 X22.3088 Y2.9323 
G01 X22.3156 Y2.9429 
G01 X22.3205 Y2.9545 
G01 X22.3383 Y2.9778 
G01 X22.3543 Y3.0024 
G01 X22.3637 Y3.0108 
G01 X22.3714 Y3.0209 
G01 X22.3946 Y3.0387 
G01 X22.4164 Y3.0583 
G01 X22.4277 Y3.0641 
G01 X22.4377 Y3.0718 
G01 X22.4648 Y3.0830 
G01 X22.4909 Y3.0963 
G01 X22.5032 Y3.0989 
G01 X22.5149 Y3.1037 
G01 X22.5440 Y3.1076 
G01 X22.5727 Y3.1137 
G01 X22.5853 Y3.1130 
G01 X22.5978 Y3.1147 
G01 X22.6269 Y3.1108 
G01 X22.6561 Y3.1093 
G01 X22.6682 Y3.1054 
G01 X22.6807 Y3.1037 
G01 X22.7078 Y3.0925 
G01 X22.7356 Y3.0835 
G01 X22.7463 Y3.0766 
G01 X22.7579 Y3.0718 
G01 X22.7812 Y3.0539 
G01 X22.8058 Y3.0380 
G01 X22.8142 Y3.0286 
G01 X22.8243 Y3.0209 
G01 X22.8421 Y2.9976 
G01 X22.8617 Y2.9758 
G01 X22.8674 Y2.9646 
G01 X22.8751 Y2.9545 
G01 X22.8864 Y2.9274 
G01 X22.8997 Y2.9014 
G01 X22.9023 Y2.8890 
G01 X23.0270 Y2.5879 
G01 X23.3499 Y2.2650 
G01 X23.7717 Y2.0903 
G01 X24.2283 Y2.0903 
G01 X24.6501 Y2.2650 
G01 X24.9730 Y2.5879 
G01 X24.9767 Y2.5970 
G01 X24.9927 Y2.6354 
G01 X25.0171 Y2.6673 
G01 X25.0435 Y2.7017 
G01 X25.0790 Y2.7289 
G01 X25.1099 Y2.7526 
G01 X25.1462 Y2.7677 
G01 X25.1871 Y2.7846 
G01 X25.2129 Y2.7880 
G01 X25.2700 Y2.7955 
G01 X25.3287 Y2.7878 
G01 X25.3529 Y2.7846 
G01 X25.3947 Y2.7673 
G01 X25.4301 Y2.7526 
G01 X25.4620 Y2.7282 
G01 X25.4964 Y2.7018 
G01 X25.5236 Y2.6663 
G01 X25.5473 Y2.6354 
G01 X25.5626 Y2.5985 
G01 X25.5670 Y2.5879 
G01 X25.8899 Y2.2650 
G01 X26.3117 Y2.0903 
G01 X26.7683 Y2.0903 
G01 X27.1901 Y2.2650 
G01 X27.5130 Y2.5879 
G01 X27.5167 Y2.5970 
G01 X27.5327 Y2.6354 
G01 X27.5571 Y2.6673 
G01 X27.5835 Y2.7017 
G01 X27.6190 Y2.7289 
G01 X27.6499 Y2.7526 
G01 X27.6862 Y2.7677 
G01 X27.7271 Y2.7846 
G01 X27.7529 Y2.7880 
G01 X27.8100 Y2.7955 
G01 X27.8687 Y2.7878 
G01 X27.8929 Y2.7846 
G01 X27.9347 Y2.7673 
G01 X27.9701 Y2.7526 
G01 X28.0020 Y2.7282 
G01 X28.0364 Y2.7018 
G01 X28.0636 Y2.6663 
G01 X28.0873 Y2.6354 
G01 X28.1026 Y2.5985 
G01 X28.1070 Y2.5879 
G01 X28.4299 Y2.2650 
G01 X28.8517 Y2.0903 
G01 X29.3083 Y2.0903 
G01 X29.7301 Y2.2650 
G01 X30.0530 Y2.5879 
G01 X30.0567 Y2.5970 
G01 X30.0727 Y2.6354 
G01 X30.0971 Y2.6673 
G01 X30.1235 Y2.7017 
G01 X30.1590 Y2.7289 
G01 X30.1899 Y2.7526 
G01 X30.2262 Y2.7677 
G01 X30.2671 Y2.7846 
G01 X30.2929 Y2.7880 
G01 X30.3500 Y2.7955 
G01 X30.4087 Y2.7878 
G01 X30.4329 Y2.7846 
G01 X30.4747 Y2.7673 
G01 X30.5101 Y2.7526 
G01 X30.5420 Y2.7282 
G01 X30.5764 Y2.7018 
G01 X30.6036 Y2.6663 
G01 X30.6273 Y2.6354 
G01 X30.6426 Y2.5985 
G01 X30.6470 Y2.5879 
G01 X30.9699 Y2.2650 
G01 X31.3917 Y2.0903 
G01 X31.8483 Y2.0903 
G01 X32.2701 Y2.2650 
G01 X32.5930 Y2.5879 
G01 X32.7677 Y3.0097 
G01 X32.7677 Y4.9903 
G01 X32.6728 Y5.2193 
G01 X32.6623 Y5.2375 
G01 X32.6569 Y5.2578 
G01 X32.6489 Y5.2772 
G01 X32.6461 Y5.2980 
G01 X32.6407 Y5.3182 
G01 X32.6407 Y5.3392 
G01 X32.6380 Y5.3601 
G01 X32.6407 Y5.3809 
G01 X32.6407 Y5.5909 
G01 X32.6384 Y5.6033 
G01 X32.6407 Y5.6325 
G01 X32.6407 Y5.6618 
G01 X32.6431 Y5.6707 
G01 X32.6438 Y5.6849 
G01 X32.6451 Y5.6889 
G01 X32.6455 Y5.6932 
G01 X32.6508 Y5.7081 
G01 X32.6514 Y5.7137 
G01 X32.6621 Y5.7418 
G01 X32.6634 Y5.7450 
G01 X32.6737 Y5.7768 
G01 X32.6783 Y5.7839 
G01 X32.6813 Y5.7918 
G01 X32.6940 Y5.8092 
G01 X32.6974 Y5.8169 
G01 X32.7091 Y5.8313 
G01 X32.7192 Y5.8469 
G01 X32.7255 Y5.8526 
G01 X32.7381 Y5.8700 
G01 X32.7447 Y5.8753 
G01 X32.7500 Y5.8819 
G01 X32.7674 Y5.8945 
G01 X32.7731 Y5.9008 
G01 X32.7886 Y5.9109 
G01 X32.8031 Y5.9226 
G01 X32.8108 Y5.9260 
G01 X32.8282 Y5.9387 
G01 X32.8361 Y5.9417 
G01 X32.8432 Y5.9463 
G01 X32.8750 Y5.9566 
G01 X32.8782 Y5.9579 
G01 X32.9063 Y5.9686 
G01 X32.9119 Y5.9692 
G01 X32.9268 Y5.9745 
G01 X32.9311 Y5.9748 
G01 X32.9351 Y5.9762 
G01 X32.9492 Y5.9769 
G01 X32.9582 Y5.9793 
G01 X32.9875 Y5.9793 
G01 X33.0167 Y5.9816 
G01 X33.0291 Y5.9793 
G01 X41.7900 Y5.9793 
G01 X43.3395 Y6.2875 
G01 X44.7992 Y6.8921 
G01 X46.1129 Y7.7699 
G01 X47.2226 Y8.8796 
G01 X47.2301 Y8.8871 
G01 X48.1078 Y10.2008 
G01 X48.7125 Y11.6605 
G01 X49.0207 Y13.2100 
G01 X49.0207 Y25.7900 
G01 X48.7125 Y27.3395 
G01 X48.1078 Y28.7992 
G01 X47.2301 Y30.1129 
G01 X47.2226 Y30.1203 
G01 X46.1203 Y31.2226 
G01 X46.1129 Y31.2301 
G01 X44.7992 Y32.1078 
G01 X43.3395 Y32.7125 
G01 X41.7900 Y33.0207 
G01 X40.3614 Y33.0207 
G01 X40.2806 Y33.0423 
G01 X40.2082 Y33.0841 
G01 X40.1491 Y33.1432 
G01 X40.1073 Y33.2156 
G01 X40.0857 Y33.2964 
G01 X40.0857 Y34.1767 
G01 X40.0270 Y34.3185 
G01 X39.9185 Y34.4270 
G01 X39.7767 Y34.4857 
G01 X39.3715 Y34.4857 
G01 X39.3507 Y34.4830 
G01 X39.3299 Y34.4857 
G01 X39.3089 Y34.4857 
G01 X39.2886 Y34.4911 
G01 X39.2678 Y34.4939 
G01 X39.2484 Y34.5019 
G01 X39.2281 Y34.5073 
G01 X39.2100 Y34.5178 
G01 X39.2030 Y34.5207 
G01 X38.7970 Y34.5207 
G01 X38.7900 Y34.5178 
G01 X38.7719 Y34.5073 
G01 X38.7516 Y34.5019 
G01 X38.7322 Y34.4939 
G01 X38.7114 Y34.4911 
G01 X38.6911 Y34.4857 
G01 X38.6701 Y34.4857 
G01 X38.6493 Y34.4830 
G01 X38.6285 Y34.4857 
G01 X38.2233 Y34.4857 
G01 X38.0815 Y34.4270 
G01 X37.9730 Y34.3185 
G01 X37.9143 Y34.1767 
G01 X37.9143 Y32.8233 
G01 X37.9838 Y32.6554 
G01 X37.9907 Y32.6448 
G01 X37.9998 Y32.6169 
G01 X38.0110 Y32.5898 
G01 X38.0127 Y32.5773 
G01 X38.1771 Y32.0712 
G01 X38.5594 Y31.5450 
G01 X38.5713 Y31.5331 
G01 X38.5838 Y31.5114 
G01 X38.5986 Y31.4910 
G01 X38.6046 Y31.4753 
G01 X38.6131 Y31.4607 
G01 X38.6196 Y31.4364 
G01 X38.6286 Y31.4130 
G01 X38.6303 Y31.3962 
G01 X38.6347 Y31.3800 
G01 X38.6347 Y31.3548 
G01 X38.6373 Y31.3298 
G01 X38.6347 Y31.3132 
G01 X38.6347 Y31.2964 
G01 X38.6282 Y31.2721 
G01 X38.6242 Y31.2472 
G01 X38.6174 Y31.2319 
G01 X38.6131 Y31.2156 
G01 X38.6005 Y31.1939 
G01 X38.5902 Y31.1709 
G01 X38.5797 Y31.1578 
G01 X38.5713 Y31.1432 
G01 X38.5535 Y31.1255 
G01 X38.5376 Y31.1059 
G01 X38.5240 Y31.0960 
G01 X38.5121 Y31.0841 
G01 X38.4904 Y31.0716 
G01 X38.4700 Y31.0568 
G01 X38.4543 Y31.0507 
G01 X38.4397 Y31.0423 
G01 X38.4154 Y31.0358 
G01 X38.3920 Y31.0268 
G01 X38.3752 Y31.0251 
G01 X38.3590 Y31.0207 
G01 X38.3338 Y31.0207 
G01 X38.3088 Y31.0181 
G01 X38.2922 Y31.0207 
G01 X37.5313 Y31.0207 
G01 X37.5209 Y31.0186 
G01 X37.4896 Y31.0207 
G01 X37.4582 Y31.0207 
G01 X37.4480 Y31.0234 
G01 X37.2074 Y31.0392 
G01 X37.1760 Y31.0392 
G01 X37.1659 Y31.0419 
G01 X37.1553 Y31.0426 
G01 X37.1256 Y31.0527 
G01 X36.6309 Y31.1853 
G01 X36.5502 Y31.2069 
G01 X36.4778 Y31.2487 
G01 X36.0614 Y31.4891 
G01 X35.9890 Y31.5309 
G01 X35.9299 Y31.5900 
G01 X35.5900 Y31.9299 
G01 X35.5309 Y31.9890 
G01 X35.4891 Y32.0614 
G01 X35.2082 Y32.5480 
G01 X35.2055 Y32.5555 
G01 X35.1853 Y32.6309 
G01 X35.0871 Y32.9972 
G01 X35.0857 Y33.0025 
G01 X35.0857 Y34.1767 
G01 X35.0270 Y34.3185 
G01 X34.9185 Y34.4270 
G01 X34.7767 Y34.4857 
G01 X34.3715 Y34.4857 
G01 X34.3507 Y34.4830 
G01 X34.3299 Y34.4857 
G01 X34.3089 Y34.4857 
G01 X34.2886 Y34.4911 
G01 X34.2678 Y34.4939 
G01 X34.2484 Y34.5019 
G01 X34.2281 Y34.5073 
G01 X34.2100 Y34.5178 
G01 X34.2030 Y34.5207 
G01 X33.7970 Y34.5207 
G01 X33.7900 Y34.5178 
G01 X33.7719 Y34.5073 
G01 X33.7516 Y34.5019 
G01 X33.7322 Y34.4939 
G01 X33.7114 Y34.4911 
G01 X33.6911 Y34.4857 
G01 X33.6701 Y34.4857 
G01 X33.6493 Y34.4830 
G01 X33.6285 Y34.4857 
G01 X33.2233 Y34.4857 
G01 X33.0815 Y34.4270 
G01 X32.9730 Y34.3185 
G01 X32.9143 Y34.1767 
G01 X32.9143 Y32.8233 
G01 X32.9730 Y32.6815 
G01 X33.0311 Y32.6234 
G01 X33.0686 Y32.5597 
G01 X33.0745 Y32.5494 
G01 X33.0830 Y32.5177 
G01 X33.0962 Y32.4687 
G01 X33.2874 Y31.7551 
G01 X33.8825 Y30.7242 
G01 X34.7242 Y29.8825 
G01 X35.2270 Y29.5923 
G01 X35.2852 Y29.5341 
G01 X35.3279 Y29.4607 
G01 X35.3496 Y29.3800 
G01 X35.3496 Y29.2964 
G01 X35.3279 Y29.2156 
G01 X35.2861 Y29.1432 
G01 X35.2279 Y29.0851 
G01 X35.1546 Y29.0423 
G01 X35.0739 Y29.0207 
G01 X34.0327 Y29.0207 
G01 X34.0239 Y29.0189 
G01 X33.9911 Y29.0207 
G01 X33.9582 Y29.0207 
G01 X33.9495 Y29.0230 
G01 X33.5870 Y29.0434 
G01 X33.5601 Y29.0424 
G01 X33.5455 Y29.0457 
G01 X33.5305 Y29.0466 
G01 X33.5049 Y29.0550 
G01 X32.7257 Y29.2328 
G01 X32.6905 Y29.2395 
G01 X32.6850 Y29.2421 
G01 X32.6792 Y29.2434 
G01 X32.6475 Y29.2602 
G01 X31.9409 Y29.6005 
G01 X31.9292 Y29.6036 
G01 X31.9085 Y29.6156 
G01 X31.8865 Y29.6252 
G01 X31.8818 Y29.6289 
G01 X31.8764 Y29.6315 
G01 X31.8673 Y29.6394 
G01 X31.8569 Y29.6454 
G01 X31.8399 Y29.6623 
G01 X31.2174 Y30.1588 
G01 X31.1885 Y30.1801 
G01 X31.1848 Y30.1848 
G01 X31.1801 Y30.1885 
G01 X31.1588 Y30.2174 
G01 X30.6549 Y30.8492 
G01 X30.6315 Y30.8764 
G01 X30.6289 Y30.8818 
G01 X30.6252 Y30.8865 
G01 X30.6108 Y30.9194 
G01 X30.2602 Y31.6475 
G01 X30.2434 Y31.6792 
G01 X30.2421 Y31.6851 
G01 X30.2395 Y31.6905 
G01 X30.2328 Y31.7257 
G01 X30.0550 Y32.5049 
G01 X30.0466 Y32.5305 
G01 X30.0457 Y32.5455 
G01 X30.0424 Y32.5601 
G01 X30.0434 Y32.5870 
G01 X30.0415 Y32.6209 
G01 X30.0376 Y32.6506 
G01 X30.0391 Y32.6625 
G01 X30.0385 Y32.6745 
G01 X30.0446 Y32.7038 
G01 X30.0485 Y32.7335 
G01 X30.0531 Y32.7446 
G01 X30.0555 Y32.7563 
G01 X30.0690 Y32.7831 
G01 X30.0857 Y32.8233 
G01 X30.0857 Y34.1767 
G01 X30.0270 Y34.3185 
G01 X29.9185 Y34.4270 
G01 X29.7767 Y34.4857 
G01 X28.2233 Y34.4857 
G01 X28.0815 Y34.4270 
G01 X27.9730 Y34.3185 
G01 X27.9143 Y34.1767 
G01 X27.9143 Y32.8233 
G01 X27.9472 Y32.7439 
G01 X27.9577 Y32.7258 
G01 X27.9631 Y32.7055 
G01 X27.9711 Y32.6861 
G01 X27.9739 Y32.6653 
G01 X27.9793 Y32.6450 
G01 X27.9793 Y32.6240 
G01 X27.9820 Y32.6032 
G01 X27.9793 Y32.5824 
G01 X27.9793 Y32.3216 
G01 X28.2812 Y30.9989 
G01 X28.8699 Y29.7765 
G01 X29.7158 Y28.7158 
G01 X30.7765 Y27.8699 
G01 X31.9989 Y27.2812 
G01 X33.3216 Y26.9793 
G01 X40.9687 Y26.9793 
G01 X40.9791 Y26.9813 
G01 X41.0104 Y26.9793 
G01 X41.0418 Y26.9793 
G01 X41.0520 Y26.9766 
G01 X41.2273 Y26.9651 
G01 X41.2587 Y26.9651 
G01 X41.2689 Y26.9624 
G01 X41.2794 Y26.9617 
G01 X41.3091 Y26.9516 
G01 X41.6777 Y26.8528 
G01 X41.7585 Y26.8312 
G01 X42.1342 Y26.6143 
G01 X42.2066 Y26.5725 
G01 X42.2657 Y26.5133 
G01 X42.5133 Y26.2657 
G01 X42.5725 Y26.2066 
G01 X42.6143 Y26.1342 
G01 X42.8299 Y25.7608 
G01 X42.8338 Y25.7486 
G01 X42.8528 Y25.6777 
G01 X42.9516 Y25.3091 
G01 X42.9617 Y25.2794 
G01 X42.9624 Y25.2689 
G01 X42.9651 Y25.2587 
G01 X42.9651 Y25.2273 
G01 X42.9766 Y25.0520 
G01 X42.9793 Y25.0418 
G01 X42.9793 Y25.0104 
G01 X42.9813 Y24.9791 
G01 X42.9793 Y24.9687 
G01 X42.9793 Y14.0313 
G01 X42.9813 Y14.0209 
G01 X42.9793 Y13.9896 
G01 X42.9793 Y13.9582 
G01 X42.9766 Y13.9480 
G01 X42.9651 Y13.7727 
G01 X42.9651 Y13.7413 
G01 X42.9624 Y13.7311 
G01 X42.9617 Y13.7206 
G01 X42.9516 Y13.6909 
G01 X42.8528 Y13.3223 
G01 X42.8312 Y13.2415 
G01 X42.6143 Y12.8658 
G01 X42.5725 Y12.7934 
G01 X42.5133 Y12.7343 
G01 X42.2657 Y12.4867 
G01 X42.2066 Y12.4275 
G01 X42.1342 Y12.3857 
G01 X41.7585 Y12.1688 
G01 X41.6777 Y12.1472 
G01 X41.3091 Y12.0484 
G01 X41.2794 Y12.0383 
G01 X41.2689 Y12.0376 
G01 X41.2587 Y12.0349 
G01 X41.2273 Y12.0349 
G01 X41.0520 Y12.0234 
G01 X41.0418 Y12.0207 
G01 X41.0104 Y12.0207 
G01 X40.9791 Y12.0186 
G01 X40.9687 Y12.0207 
G01 X33.1889 Y12.0207 
G01 X33.1081 Y12.0423 
G01 X33.0357 Y12.0841 
G01 X32.9766 Y12.1432 
G01 X32.9348 Y12.2156 
G01 X32.9132 Y12.2964 
G01 X32.9132 Y12.3800 
G01 X32.9348 Y12.4607 
G01 X32.9766 Y12.5331 
G01 X33.0024 Y12.5589 
G01 X33.0357 Y12.5923 
G01 X34.6036 Y14.1601 
G01 X34.6294 Y14.1859 
G01 X34.7017 Y14.2277 
G01 X34.7825 Y14.2493 
G01 X34.9316 Y14.2493 
G01 X35.0123 Y14.2277 
G01 X35.0188 Y14.2239 
G01 X35.9133 Y14.2239 
G01 X36.5261 Y14.8367 
G01 X36.5261 Y15.7033 
G01 X36.2126 Y16.0168 
G01 X36.1717 Y16.0877 
G01 X36.1491 Y16.1700 
G01 X36.1491 Y16.2536 
G01 X36.1707 Y16.3344 
G01 X36.1864 Y16.3614 
G01 X36.2125 Y16.4067 
G01 X36.2717 Y16.4659 
G01 X36.3425 Y16.5067 
G01 X36.4248 Y16.5293 
G01 X39.4240 Y16.5293 
G01 X39.5048 Y16.5077 
G01 X39.5307 Y16.4927 
G01 X39.5772 Y16.4659 
G01 X40.0510 Y15.9920 
G01 X40.0702 Y15.9595 
G01 X40.0938 Y15.9186 
G01 X40.1155 Y15.8378 
G01 X40.1155 Y15.7542 
G01 X40.0938 Y15.6735 
G01 X40.0782 Y15.6464 
G01 X40.0520 Y15.6011 
G01 X39.9929 Y15.5420 
G01 X39.5402 Y15.0893 
G01 X39.5402 Y15.0175 
G01 X39.5656 Y15.0175 
G01 X39.5656 Y15.0788 
G01 X40.1012 Y15.6144 
G01 X40.8588 Y15.6144 
G01 X41.3944 Y15.0788 
G01 X41.3944 Y15.0175 
G01 X41.4198 Y15.0175 
G01 X41.4198 Y15.0893 
G01 X40.9671 Y15.5420 
G01 X40.9080 Y15.6011 
G01 X40.8662 Y15.6735 
G01 X40.8445 Y15.7542 
G01 X40.8445 Y15.8378 
G01 X40.8662 Y15.9186 
G01 X40.8818 Y15.9457 
G01 X40.9080 Y15.9910 
G01 X40.9662 Y16.0492 
G01 X41.6658 Y16.7488 
G01 X41.6658 Y17.7312 
G01 X40.9712 Y18.4258 
G01 X40.8685 Y18.4258 
G01 X40.8477 Y18.4231 
G01 X40.8268 Y18.4258 
G01 X40.8059 Y18.4258 
G01 X40.7856 Y18.4312 
G01 X40.7648 Y18.4340 
G01 X40.7454 Y18.4420 
G01 X40.7251 Y18.4474 
G01 X40.7069 Y18.4579 
G01 X40.4347 Y18.5707 
G01 X31.7764 Y18.5707 
G01 X31.6956 Y18.5923 
G01 X31.6232 Y18.6341 
G01 X31.5641 Y18.6932 
G01 X31.5223 Y18.7656 
G01 X31.5007 Y18.8464 
G01 X31.5007 Y21.9580 
G01 X31.5007 Y22.0003 
G01 X31.5007 Y22.0416 
G01 X31.5141 Y22.0916 
G01 X31.5223 Y22.1223 
G01 X31.5261 Y22.1289 
G01 X31.5261 Y23.0233 
G01 X31.0826 Y23.4668 
G01 X31.0417 Y23.5377 
G01 X31.0191 Y23.6200 
G01 X31.0191 Y23.7036 
G01 X31.0407 Y23.7843 
G01 X31.0564 Y23.8114 
G01 X31.0825 Y23.8567 
G01 X31.1417 Y23.9159 
G01 X31.2125 Y23.9567 
G01 X31.2948 Y23.9793 
G01 X34.1836 Y23.9793 
G01 X34.2644 Y23.9577 
G01 X34.3367 Y23.9159 
G01 X34.3959 Y23.8567 
G01 X34.4377 Y23.7843 
G01 X34.4593 Y23.7036 
G01 X34.4593 Y23.5220 
G01 X34.4593 Y23.4797 
G01 X34.4593 Y23.4384 
G01 X34.4459 Y23.3884 
G01 X34.4377 Y23.3577 
G01 X34.4339 Y23.3511 
G01 X34.4339 Y22.4567 
G01 X35.0467 Y21.8439 
G01 X35.9133 Y21.8439 
G01 X36.5261 Y22.4567 
G01 X36.5261 Y23.3511 
G01 X36.5223 Y23.3576 
G01 X36.5136 Y23.3902 
G01 X36.5007 Y23.4384 
G01 X36.5007 Y23.4807 
G01 X36.5007 Y23.5220 
G01 X36.5007 Y23.7036 
G01 X36.5223 Y23.7843 
G01 X36.5641 Y23.8567 
G01 X36.6232 Y23.9159 
G01 X36.6956 Y23.9577 
G01 X36.7764 Y23.9793 
G01 X39.0185 Y23.9793 
G01 X39.0992 Y23.9577 
G01 X39.1716 Y23.9159 
G01 X39.2308 Y23.8567 
G01 X39.2726 Y23.7843 
G01 X39.2942 Y23.7036 
G01 X39.2942 Y23.6688 
G01 X39.9929 Y22.9701 
G01 X40.0520 Y22.9110 
G01 X40.0789 Y22.8645 
G01 X40.0938 Y22.8386 
G01 X40.1155 Y22.7579 
G01 X40.1155 Y22.6742 
G01 X40.0938 Y22.5935 
G01 X40.0520 Y22.5211 
G01 X39.9938 Y22.4629 
G01 X39.5402 Y22.0093 
G01 X39.5402 Y21.9375 
G01 X39.5656 Y21.9375 
G01 X39.5656 Y21.9988 
G01 X40.1012 Y22.5344 
G01 X40.8588 Y22.5344 
G01 X41.3944 Y21.9988 
G01 X41.3944 Y21.9375 
G01 X41.4198 Y21.9375 
G01 X41.4198 Y22.0093 
G01 X40.9671 Y22.4620 
G01 X40.9080 Y22.5211 
G01 X40.8662 Y22.5935 
G01 X40.8445 Y22.6742 
G01 X40.8445 Y22.7579 
G01 X40.8662 Y22.8386 
G01 X40.8818 Y22.8657 
G01 X40.9080 Y22.9110 
G01 X40.9662 Y22.9692 
G01 X41.6658 Y23.6688 
G01 X41.6658 Y24.6512 
G01 X40.9712 Y25.3458 
G01 X40.8274 Y25.3458 
G01 X40.7466 Y25.3674 
G01 X40.6742 Y25.4092 
G01 X40.4665 Y25.6170 
G01 X40.0057 Y25.8830 
G01 X39.4918 Y26.0207 
G01 X28.7970 Y26.0207 
G01 X28.4218 Y25.8653 
G01 X28.1196 Y25.5631 
G01 X26.4530 Y23.8964 
G01 X26.3938 Y23.8373 
G01 X26.3214 Y23.7955 
G01 X26.2407 Y23.7739 
G01 X25.7665 Y23.7739 
G01 X25.3167 Y23.5876 
G01 X24.9724 Y23.2433 
G01 X24.7861 Y22.7934 
G01 X24.7861 Y22.3066 
G01 X24.9724 Y21.8567 
G01 X25.3167 Y21.5124 
G01 X25.4463 Y21.4587 
G01 X25.4743 Y21.4497 
G01 X25.4848 Y21.4428 
G01 X25.4965 Y21.4380 
G01 X25.5197 Y21.4201 
G01 X25.5444 Y21.4041 
G01 X25.5528 Y21.3947 
G01 X25.5628 Y21.3871 
G01 X25.5807 Y21.3638 
G01 X25.6003 Y21.3420 
G01 X25.6060 Y21.3308 
G01 X25.6137 Y21.3208 
G01 X25.6249 Y21.2936 
G01 X25.6382 Y21.2675 
G01 X25.6409 Y21.2552 
G01 X25.6457 Y21.2435 
G01 X25.6495 Y21.2144 
G01 X25.6556 Y21.1857 
G01 X25.6550 Y21.1731 
G01 X25.6566 Y21.1606 
G01 X25.6528 Y21.1315 
G01 X25.6512 Y21.1022 
G01 X25.6473 Y21.0902 
G01 X25.6457 Y21.0777 
G01 X25.6345 Y21.0507 
G01 X25.6254 Y21.0227 
G01 X25.6185 Y21.0122 
G01 X25.6137 Y21.0005 
G01 X25.5959 Y20.9773 
G01 X25.5799 Y20.9526 
G01 X25.5705 Y20.9442 
G01 X25.5628 Y20.9342 
G01 X25.5395 Y20.9163 
G01 X25.5177 Y20.8967 
G01 X25.5065 Y20.8910 
G01 X25.4965 Y20.8833 
G01 X25.4889 Y20.8802 
G01 X25.3729 Y20.7959 
G01 X25.2641 Y20.6871 
G01 X25.1736 Y20.5625 
G01 X25.1037 Y20.4254 
G01 X25.1001 Y20.4143 
G01 X25.1299 Y20.4143 
G01 X25.1659 Y20.5012 
G01 X25.2701 Y20.6572 
G01 X25.4028 Y20.7899 
G01 X25.5588 Y20.8941 
G01 X25.7322 Y20.9659 
G01 X25.9162 Y21.0025 
G01 X26.1038 Y21.0025 
G01 X26.2878 Y20.9659 
G01 X26.4612 Y20.8941 
G01 X26.6172 Y20.7899 
G01 X26.7499 Y20.6572 
G01 X26.8541 Y20.5012 
G01 X26.8901 Y20.4143 
G01 X26.9199 Y20.4143 
G01 X26.9163 Y20.4254 
G01 X26.8464 Y20.5625 
G01 X26.7559 Y20.6871 
G01 X26.6471 Y20.7959 
G01 X26.5311 Y20.8802 
G01 X26.5235 Y20.8833 
G01 X26.5135 Y20.8910 
G01 X26.5023 Y20.8967 
G01 X26.4805 Y20.9163 
G01 X26.4572 Y20.9342 
G01 X26.4495 Y20.9442 
G01 X26.4401 Y20.9526 
G01 X26.4241 Y20.9773 
G01 X26.4063 Y21.0005 
G01 X26.4015 Y21.0122 
G01 X26.3946 Y21.0227 
G01 X26.3855 Y21.0507 
G01 X26.3743 Y21.0777 
G01 X26.3727 Y21.0902 
G01 X26.3688 Y21.1022 
G01 X26.3672 Y21.1315 
G01 X26.3634 Y21.1606 
G01 X26.3650 Y21.1731 
G01 X26.3644 Y21.1857 
G01 X26.3705 Y21.2144 
G01 X26.3743 Y21.2435 
G01 X26.3791 Y21.2552 
G01 X26.3817 Y21.2675 
G01 X26.3951 Y21.2936 
G01 X26.4063 Y21.3208 
G01 X26.4140 Y21.3308 
G01 X26.4197 Y21.3420 
G01 X26.4393 Y21.3638 
G01 X26.4572 Y21.3871 
G01 X26.4672 Y21.3947 
G01 X26.4756 Y21.4041 
G01 X26.5002 Y21.4201 
G01 X26.5235 Y21.4380 
G01 X26.5352 Y21.4428 
G01 X26.5457 Y21.4497 
G01 X26.5737 Y21.4587 
G01 X26.7033 Y21.5124 
G01 X26.7470 Y21.5561 
G01 X26.8061 Y21.6152 
G01 X26.8261 Y21.6268 
G01 X26.8785 Y21.6570 
G01 X26.9158 Y21.6670 
G01 X27.3765 Y21.9330 
G01 X27.5351 Y22.0916 
G01 X27.7233 Y22.2798 
G01 X29.3002 Y23.8567 
G01 X29.3593 Y23.9159 
G01 X29.4317 Y23.9577 
G01 X29.5125 Y23.9793 
G01 X29.6652 Y23.9793 
G01 X29.7459 Y23.9577 
G01 X29.8183 Y23.9159 
G01 X29.8774 Y23.8567 
G01 X29.9043 Y23.8103 
G01 X29.9192 Y23.7843 
G01 X29.9409 Y23.7036 
G01 X29.9409 Y23.6200 
G01 X29.9192 Y23.5392 
G01 X29.8774 Y23.4668 
G01 X29.4339 Y23.0233 
G01 X29.4339 Y22.1289 
G01 X29.4377 Y22.1224 
G01 X29.4464 Y22.0898 
G01 X29.4593 Y22.0416 
G01 X29.4593 Y21.9993 
G01 X29.4593 Y21.9580 
G01 X29.4593 Y18.8464 
G01 X29.4377 Y18.7656 
G01 X29.3959 Y18.6932 
G01 X29.3367 Y18.6341 
G01 X29.2644 Y18.5923 
G01 X29.1836 Y18.5707 
G01 X26.8280 Y18.5707 
G01 X26.8072 Y18.5680 
G01 X26.7864 Y18.5707 
G01 X26.7654 Y18.5707 
G01 X26.7451 Y18.5761 
G01 X26.7243 Y18.5789 
G01 X26.7049 Y18.5869 
G01 X26.6846 Y18.5923 
G01 X26.6665 Y18.6028 
G01 X26.5736 Y18.6413 
G01 X26.5456 Y18.6504 
G01 X26.5351 Y18.6572 
G01 X26.5235 Y18.6620 
G01 X26.5002 Y18.6800 
G01 X26.4755 Y18.6960 
G01 X26.4671 Y18.7053 
G01 X26.4572 Y18.7129 
G01 X26.4393 Y18.7363 
G01 X26.4196 Y18.7581 
G01 X26.4139 Y18.7693 
G01 X26.4063 Y18.7792 
G01 X26.3950 Y18.8064 
G01 X26.3817 Y18.8326 
G01 X26.3791 Y18.8449 
G01 X26.3743 Y18.8565 
G01 X26.3705 Y18.8857 
G01 X26.3644 Y18.9144 
G01 X26.3650 Y18.9269 
G01 X26.3634 Y18.9394 
G01 X26.3672 Y18.9685 
G01 X26.3688 Y18.9979 
G01 X26.3727 Y19.0098 
G01 X26.3743 Y19.0223 
G01 X26.3856 Y19.0494 
G01 X26.3947 Y19.0774 
G01 X26.4015 Y19.0879 
G01 X26.4063 Y19.0995 
G01 X26.4242 Y19.1228 
G01 X26.4402 Y19.1475 
G01 X26.4495 Y19.1559 
G01 X26.4572 Y19.1658 
G01 X26.4805 Y19.1837 
G01 X26.5024 Y19.2034 
G01 X26.5136 Y19.2091 
G01 X26.5235 Y19.2167 
G01 X26.5311 Y19.2199 
G01 X26.6471 Y19.3041 
G01 X26.7559 Y19.4129 
G01 X26.8464 Y19.5375 
G01 X26.9163 Y19.6746 
G01 X26.9199 Y19.6857 
G01 X26.8901 Y19.6857 
G01 X26.8541 Y19.5988 
G01 X26.7499 Y19.4428 
G01 X26.6172 Y19.3101 
G01 X26.4612 Y19.2059 
G01 X26.2878 Y19.1341 
G01 X26.1038 Y19.0975 
G01 X25.9162 Y19.0975 
G01 X25.7322 Y19.1341 
G01 X25.5588 Y19.2059 
G01 X25.4028 Y19.3101 
G01 X25.2701 Y19.4428 
G01 X25.1659 Y19.5988 
G01 X25.1299 Y19.6857 
G01 X25.1001 Y19.6857 
G01 X25.1037 Y19.6746 
G01 X25.1736 Y19.5375 
G01 X25.2641 Y19.4129 
G01 X25.3729 Y19.3041 
G01 X25.4889 Y19.2199 
G01 X25.4965 Y19.2167 
G01 X25.5064 Y19.2091 
G01 X25.5176 Y19.2034 
G01 X25.5395 Y19.1837 
G01 X25.5628 Y19.1658 
G01 X25.5704 Y19.1559 
G01 X25.5798 Y19.1475 
G01 X25.5958 Y19.1228 
G01 X25.6137 Y19.0995 
G01 X25.6185 Y19.0879 
G01 X25.6253 Y19.0774 
G01 X25.6344 Y19.0494 
G01 X25.6457 Y19.0223 
G01 X25.6473 Y19.0098 
G01 X25.6512 Y18.9979 
G01 X25.6528 Y18.9686 
G01 X25.6566 Y18.9394 
G01 X25.6550 Y18.9269 
G01 X25.6556 Y18.9144 
G01 X25.6495 Y18.8857 
G01 X25.6457 Y18.8565 
G01 X25.6409 Y18.8449 
G01 X25.6383 Y18.8326 
G01 X25.6250 Y18.8064 
G01 X25.6137 Y18.7793 
G01 X25.6061 Y18.7693 
G01 X25.6004 Y18.7581 
G01 X25.5807 Y18.7363 
G01 X25.5628 Y18.7129 
G01 X25.5529 Y18.7053 
G01 X25.5445 Y18.6960 
G01 X25.5198 Y18.6800 
G01 X25.4965 Y18.6620 
G01 X25.4849 Y18.6572 
G01 X25.4744 Y18.6504 
G01 X25.4465 Y18.6413 
G01 X25.3167 Y18.5876 
G01 X24.9724 Y18.2433 
G01 X24.7861 Y17.7934 
G01 X24.7861 Y17.3066 
G01 X24.9724 Y16.8567 
G01 X25.3167 Y16.5124 
G01 X25.4036 Y16.4764 
G01 X25.4212 Y16.4691 
G01 X25.4809 Y16.4444 
G01 X25.5082 Y16.4235 
G01 X25.5472 Y16.3935 
G01 X25.5790 Y16.3521 
G01 X25.5981 Y16.3272 
G01 X25.6227 Y16.2678 
G01 X25.6301 Y16.2500 
G01 X25.6368 Y16.1989 
G01 X25.6410 Y16.1671 
G01 X25.6359 Y16.1283 
G01 X25.6301 Y16.0842 
G01 X25.6149 Y16.0477 
G01 X25.5981 Y16.0070 
G01 X25.5771 Y15.9797 
G01 X25.5472 Y15.9407 
G01 X25.5058 Y15.9089 
G01 X25.4809 Y15.8898 
G01 X25.4353 Y15.8709 
G01 X25.4218 Y15.8653 
G01 X25.1196 Y15.5631 
G01 X23.4833 Y13.9267 
G01 X23.4241 Y13.8676 
G01 X23.3517 Y13.8258 
G01 X23.2710 Y13.8042 
G01 X23.1874 Y13.8042 
G01 X23.1066 Y13.8258 
G01 X23.0342 Y13.8676 
G01 X22.9751 Y13.9267 
G01 X22.9333 Y13.9991 
G01 X22.9117 Y14.0799 
G01 X22.9117 Y14.3326 
G01 X22.7486 Y14.9414 
G01 X22.4334 Y15.4873 
G01 X21.9878 Y15.9329 
G01 X21.4419 Y16.2481 
G01 X20.8331 Y16.4112 
G01 X16.1869 Y16.4112 
G01 X15.5781 Y16.2481 
G01 X15.0322 Y15.9329 
G01 X14.5866 Y15.4873 
G01 X14.2714 Y14.9414 
G01 X14.1083 Y14.3326 
G01 X14.1083 Y13.7024 
G01 X14.2856 Y13.0405 
G01 X14.2856 Y12.9569 
G01 X14.2640 Y12.8761 
G01 X14.2222 Y12.8037 
G01 X14.1631 Y12.7446 
G01 X14.1166 Y12.7178 
G01 X14.0907 Y12.7028 
G01 X14.0099 Y12.6812 
G01 X13.9263 Y12.6812 
G01 X13.8456 Y12.7028 
G01 X13.7732 Y12.7446 
G01 X13.3957 Y13.1221 
G01 X12.5060 Y13.6358 
G01 X11.5137 Y13.9017 
G01 X10.4863 Y13.9017 
G01 X9.4940 Y13.6358 
G01 X8.6043 Y13.1221 
G01 X7.8779 Y12.3957 
G01 X7.5923 Y11.9010 
G01 X7.5331 Y11.8419 
G01 X7.4623 Y11.8010 
G01 X7.3800 Y11.7785 
G01 X7.2964 Y11.7785 
G01 X7.2156 Y11.8001 
G01 X7.1886 Y11.8157 
G01 X7.1432 Y11.8419 
G01 X7.0841 Y11.9010 
G01 X7.0433 Y11.9718 
G01 X7.0207 Y12.0542 
G01 X7.0207 Y21.2536 
G01 X7.0423 Y21.3344 
G01 X7.0841 Y21.4067 
G01 X7.1432 Y21.4659 
G01 X7.2156 Y21.5077 
G01 X7.2964 Y21.5293 
G01 X10.6920 Y21.5293 
G01 X10.7128 Y21.5320 
G01 X10.7336 Y21.5293 
G01 X10.7546 Y21.5293 
G01 X10.7749 Y21.5239 
G01 X10.7957 Y21.5211 
G01 X10.8151 Y21.5131 
G01 X10.8354 Y21.5077 
G01 X10.8535 Y21.4972 
G01 X11.2666 Y21.3261 
G01 X11.7534 Y21.3261 
G01 X12.2033 Y21.5124 
G01 X12.5476 Y21.8567 
G01 X12.7339 Y22.3066 
G01 X12.7339 Y22.7934 
G01 X12.5476 Y23.2433 
G01 X12.2033 Y23.5876 
G01 X11.7534 Y23.7739 
G01 X11.2666 Y23.7739 
G01 X10.8535 Y23.6028 
G01 X10.8354 Y23.5923 
G01 X10.8151 Y23.5869 
G01 X10.7957 Y23.5789 
G01 X10.7749 Y23.5761 
G01 X10.7546 Y23.5707 
G01 X10.7336 Y23.5707 
G01 X10.7128 Y23.5680 
G01 X10.6920 Y23.5707 
G01 X6.6799 Y23.5707 
G01 X6.0712 Y23.3729 
G01 X5.5533 Y22.9967 
G01 X5.1771 Y22.4788 
G01 X4.9793 Y21.8700 
G01 X4.9793 Y3.7970 
G01 X5.1347 Y3.4218 
G01 X5.4218 Y3.1347 
G00 Z2.5400 
G00 X5.5223 Y3.4180 
G01 Z-0.1778 F200.00 
G01 X5.4180 Y3.5223 F200.00 
G01 X5.3360 Y3.6451 
G01 X5.2795 Y3.7814 
G01 X5.2507 Y3.9262 
G01 X5.2507 Y21.6751 
G01 X5.2863 Y21.9228 
G01 X5.3568 Y22.1629 
G01 X5.4608 Y22.3905 
G01 X5.5960 Y22.6010 
G01 X5.7599 Y22.7901 
G01 X5.9490 Y22.9540 
G01 X6.1595 Y23.0892 
G01 X6.3871 Y23.1932 
G01 X6.6272 Y23.2637 
G01 X6.8749 Y23.2993 
G01 X10.9170 Y23.2993 
G01 X11.0588 Y23.3941 
G01 X11.2322 Y23.4659 
G01 X11.4162 Y23.5025 
G01 X11.6038 Y23.5025 
G01 X11.7878 Y23.4659 
G01 X11.9612 Y23.3941 
G01 X12.1172 Y23.2899 
G01 X12.2499 Y23.1572 
G01 X12.3541 Y23.0012 
G01 X12.4259 Y22.8278 
G01 X12.4625 Y22.6438 
G01 X12.4625 Y22.4562 
G01 X12.4259 Y22.2722 
G01 X12.3541 Y22.0988 
G01 X12.2499 Y21.9428 
G01 X12.1172 Y21.8101 
G01 X11.9612 Y21.7059 
G01 X11.7878 Y21.6341 
G01 X11.6038 Y21.5975 
G01 X11.4162 Y21.5975 
G01 X11.2322 Y21.6341 
G01 X11.0588 Y21.7059 
G01 X10.9170 Y21.8007 
G01 X7.0000 Y21.8007 
G01 X6.9821 Y21.8001 
G01 X6.9467 Y21.7950 
G01 X6.9124 Y21.7849 
G01 X6.8799 Y21.7700 
G01 X6.8498 Y21.7507 
G01 X6.8227 Y21.7273 
G01 X6.7993 Y21.7002 
G01 X6.7800 Y21.6701 
G01 X6.7651 Y21.6376 
G01 X6.7550 Y21.6033 
G01 X6.7499 Y21.5679 
G01 X6.7493 Y21.5500 
G01 X6.7493 Y4.7493 
G01 X15.5037 Y4.7493 
G01 X15.5037 Y4.8483 
G01 X15.5374 Y5.0176 
G01 X15.6034 Y5.1771 
G01 X15.6993 Y5.3206 
G01 X15.8214 Y5.4427 
G01 X15.9649 Y5.5386 
G01 X16.1244 Y5.6046 
G01 X16.2937 Y5.6383 
G01 X16.4663 Y5.6383 
G01 X16.6356 Y5.6046 
G01 X16.7951 Y5.5386 
G01 X16.9386 Y5.4427 
G01 X17.0607 Y5.3206 
G01 X17.1566 Y5.1771 
G01 X17.2226 Y5.0176 
G01 X17.2563 Y4.8483 
G01 X17.2563 Y3.1517 
G01 X17.2226 Y2.9824 
G01 X17.1566 Y2.8229 
G01 X17.0607 Y2.6794 
G01 X16.9386 Y2.5573 
G01 X16.7951 Y2.4614 
G01 X16.6356 Y2.3954 
G01 X16.4663 Y2.3617 
G01 X16.2937 Y2.3617 
G01 X16.1244 Y2.3954 
G01 X15.9649 Y2.4614 
G01 X15.8214 Y2.5573 
G01 X15.6993 Y2.6794 
G01 X15.6034 Y2.8229 
G01 X15.5374 Y2.9824 
G01 X15.5037 Y3.1517 
G01 X15.5037 Y3.2507 
G01 X5.9262 Y3.2507 
G01 X5.7814 Y3.2795 
G01 X5.6451 Y3.3360 
G01 X5.5223 Y3.4180 
G00 Z2.5400 
G00 X18.0437 Y3.1517 
G01 Z-0.1778 F200.00 
G01 X18.0437 Y4.8483 F200.00 
G01 X18.0774 Y5.0176 
G01 X18.1434 Y5.1771 
G01 X18.1707 Y5.2179 
G01 X18.1707 Y7.6204 
G01 X18.2006 Y7.8478 
G01 X18.2600 Y8.0693 
G01 X18.3477 Y8.2811 
G01 X18.4624 Y8.4797 
G01 X18.6020 Y8.6616 
G01 X18.6309 Y8.6905 
G01 X25.4180 Y15.4777 
G01 X25.5223 Y15.5820 
G01 X25.6451 Y15.6640 
G01 X25.7814 Y15.7205 
G01 X25.9262 Y15.7493 
G01 X30.4915 Y15.7493 
G01 X30.5146 Y15.7447 
G01 X30.8009 Y15.7447 
G01 X31.2547 Y15.2909 
G01 X31.2547 Y14.6491 
G01 X30.8009 Y14.1953 
G01 X30.1591 Y14.1953 
G01 X30.1037 Y14.2507 
G01 X26.3104 Y14.2507 
G01 X19.7427 Y7.6830 
G01 X19.7315 Y7.6711 
G01 X19.7115 Y7.6451 
G01 X19.6952 Y7.6167 
G01 X19.6826 Y7.5864 
G01 X19.6741 Y7.5547 
G01 X19.6698 Y7.5222 
G01 X19.6693 Y7.5058 
G01 X19.6693 Y5.2179 
G01 X19.6966 Y5.1771 
G01 X19.7626 Y5.0176 
G01 X19.7963 Y4.8483 
G01 X19.7963 Y3.1517 
G01 X19.7626 Y2.9824 
G01 X19.6966 Y2.8229 
G01 X19.6007 Y2.6794 
G01 X19.4786 Y2.5573 
G01 X19.3351 Y2.4614 
G01 X19.1756 Y2.3954 
G01 X19.0063 Y2.3617 
G01 X18.8337 Y2.3617 
G01 X18.6644 Y2.3954 
G01 X18.5049 Y2.4614 
G01 X18.3614 Y2.5573 
G01 X18.2393 Y2.6794 
G01 X18.1434 Y2.8229 
G01 X18.0774 Y2.9824 
G01 X18.0437 Y3.1517 
G00 Z2.5400 
G00 X23.1237 Y3.1517 
G01 Z-0.1778 F200.00 
G01 X23.1237 Y4.8483 F200.00 
G01 X23.1574 Y5.0176 
G01 X23.2234 Y5.1771 
G01 X23.2507 Y5.2179 
G01 X23.2507 Y10.0738 
G01 X23.2795 Y10.2186 
G01 X23.3360 Y10.3549 
G01 X23.4180 Y10.4777 
G01 X23.5223 Y10.5820 
G01 X26.2295 Y13.2891 
G01 X26.2583 Y13.3180 
G01 X26.4403 Y13.4576 
G01 X26.6389 Y13.5723 
G01 X26.8507 Y13.6600 
G01 X27.0722 Y13.7194 
G01 X27.2996 Y13.7493 
G01 X31.6896 Y13.7493 
G01 X33.4995 Y15.5591 
G01 X33.5283 Y15.5880 
G01 X33.7103 Y15.7276 
G01 X33.9089 Y15.8423 
G01 X34.1207 Y15.9300 
G01 X34.3422 Y15.9894 
G01 X34.5696 Y16.0193 
G01 X35.1337 Y16.0193 
G01 X35.1591 Y16.0447 
G01 X35.8009 Y16.0447 
G01 X36.2547 Y15.5909 
G01 X36.2547 Y14.9491 
G01 X35.8009 Y14.4953 
G01 X35.1591 Y14.4953 
G01 X35.1337 Y14.5207 
G01 X34.6842 Y14.5207 
G01 X34.6678 Y14.5202 
G01 X34.6353 Y14.5159 
G01 X34.6036 Y14.5074 
G01 X34.5733 Y14.4948 
G01 X34.5449 Y14.4785 
G01 X34.5189 Y14.4585 
G01 X34.5069 Y14.4473 
G01 X32.5820 Y12.5223 
G01 X32.4776 Y12.4180 
G01 X32.3549 Y12.3360 
G01 X32.2186 Y12.2795 
G01 X32.0738 Y12.2507 
G01 X27.4142 Y12.2507 
G01 X27.3978 Y12.2502 
G01 X27.3653 Y12.2459 
G01 X27.3336 Y12.2374 
G01 X27.3033 Y12.2248 
G01 X27.2749 Y12.2084 
G01 X27.2489 Y12.1885 
G01 X27.2369 Y12.1773 
G01 X24.7493 Y9.6896 
G01 X24.7493 Y5.2179 
G01 X24.7766 Y5.1771 
G01 X24.8426 Y5.0176 
G01 X24.8763 Y4.8483 
G01 X24.8763 Y3.1517 
G01 X24.8426 Y2.9824 
G01 X24.7766 Y2.8229 
G01 X24.6807 Y2.6794 
G01 X24.5586 Y2.5573 
G01 X24.4151 Y2.4614 
G01 X24.2556 Y2.3954 
G01 X24.0863 Y2.3617 
G01 X23.9137 Y2.3617 
G01 X23.7444 Y2.3954 
G01 X23.5849 Y2.4614 
G01 X23.4414 Y2.5573 
G01 X23.3193 Y2.6794 
G01 X23.2234 Y2.8229 
G01 X23.1574 Y2.9824 
G01 X23.1237 Y3.1517 
G00 Z2.5400 
G00 X25.6637 Y3.1517 
G01 Z-0.1778 F200.00 
G01 X25.6637 Y4.8483 F200.00 
G01 X25.6974 Y5.0176 
G01 X25.7634 Y5.1771 
G01 X25.7907 Y5.2179 
G01 X25.7907 Y8.7082 
G01 X25.8259 Y9.0427 
G01 X25.8958 Y9.3718 
G01 X25.9997 Y9.6917 
G01 X26.1366 Y9.9990 
G01 X26.3048 Y10.2903 
G01 X26.5025 Y10.5624 
G01 X26.7276 Y10.8124 
G01 X26.9776 Y11.0375 
G01 X27.2497 Y11.2352 
G01 X27.5410 Y11.4034 
G01 X27.8483 Y11.5403 
G01 X28.1682 Y11.6442 
G01 X28.4973 Y11.7141 
G01 X28.8318 Y11.7493 
G01 X29.0738 Y11.7493 
G01 X41.0000 Y11.7493 
G01 X41.1104 Y11.7520 
G01 X41.3302 Y11.7737 
G01 X41.5469 Y11.8167 
G01 X41.7582 Y11.8809 
G01 X41.9623 Y11.9654 
G01 X42.1571 Y12.0695 
G01 X42.3407 Y12.1922 
G01 X42.5115 Y12.3323 
G01 X42.6677 Y12.4885 
G01 X42.8078 Y12.6593 
G01 X42.9305 Y12.8429 
G01 X43.0346 Y13.0377 
G01 X43.1191 Y13.2418 
G01 X43.1833 Y13.4531 
G01 X43.2263 Y13.6698 
G01 X43.2480 Y13.8896 
G01 X43.2507 Y14.0000 
G01 X43.2507 Y25.0000 
G01 X43.2480 Y25.1104 
G01 X43.2263 Y25.3302 
G01 X43.1833 Y25.5469 
G01 X43.1191 Y25.7582 
G01 X43.0346 Y25.9623 
G01 X42.9305 Y26.1571 
G01 X42.8078 Y26.3407 
G01 X42.6677 Y26.5115 
G01 X42.5115 Y26.6677 
G01 X42.3407 Y26.8078 
G01 X42.1571 Y26.9305 
G01 X41.9623 Y27.0346 
G01 X41.7582 Y27.1191 
G01 X41.5469 Y27.1833 
G01 X41.3302 Y27.2263 
G01 X41.1104 Y27.2480 
G01 X41.0000 Y27.2507 
G01 X33.7741 Y27.2507 
G01 X33.3237 Y27.2861 
G01 X32.8775 Y27.3568 
G01 X32.4382 Y27.4623 
G01 X32.0085 Y27.6019 
G01 X31.5911 Y27.7748 
G01 X31.1886 Y27.9799 
G01 X30.8034 Y28.2159 
G01 X30.4379 Y28.4815 
G01 X30.0944 Y28.7749 
G01 X29.7749 Y29.0944 
G01 X29.4815 Y29.4379 
G01 X29.2159 Y29.8034 
G01 X28.9799 Y30.1886 
G01 X28.7748 Y30.5911 
G01 X28.6019 Y31.0085 
G01 X28.4623 Y31.4382 
G01 X28.3568 Y31.8775 
G01 X28.2861 Y32.3237 
G01 X28.2507 Y32.7741 
G01 X28.2507 Y32.7967 
G01 X28.2353 Y32.8031 
G01 X28.2031 Y32.8353 
G01 X28.1857 Y32.8773 
G01 X28.1857 Y34.1227 
G01 X28.2031 Y34.1647 
G01 X28.2353 Y34.1969 
G01 X28.2773 Y34.2143 
G01 X29.7227 Y34.2143 
G01 X29.7647 Y34.1969 
G01 X29.7969 Y34.1647 
G01 X29.8143 Y34.1227 
G01 X29.8143 Y32.8773 
G01 X29.7969 Y32.8353 
G01 X29.7647 Y32.8031 
G01 X29.7552 Y32.7992 
G01 X29.7788 Y32.5004 
G01 X29.8310 Y32.1707 
G01 X29.9089 Y31.8462 
G01 X30.0120 Y31.5288 
G01 X30.1398 Y31.2204 
G01 X30.2913 Y30.9230 
G01 X30.4657 Y30.6384 
G01 X30.6619 Y30.3684 
G01 X30.8786 Y30.1146 
G01 X31.1146 Y29.8786 
G01 X31.3684 Y29.6619 
G01 X31.6384 Y29.4657 
G01 X31.9230 Y29.2913 
G01 X32.2204 Y29.1398 
G01 X32.5288 Y29.0120 
G01 X32.8462 Y28.9089 
G01 X33.1707 Y28.8310 
G01 X33.5004 Y28.7788 
G01 X33.8331 Y28.7526 
G01 X34.0000 Y28.7493 
G01 X41.1842 Y28.7493 
G01 X41.5508 Y28.7132 
G01 X41.9121 Y28.6413 
G01 X42.2646 Y28.5344 
G01 X42.6050 Y28.3934 
G01 X42.9298 Y28.2198 
G01 X43.2361 Y28.0151 
G01 X43.5209 Y27.7814 
G01 X43.7814 Y27.5209 
G01 X44.0151 Y27.2361 
G01 X44.2198 Y26.9298 
G01 X44.3934 Y26.6050 
G01 X44.5344 Y26.2646 
G01 X44.6413 Y25.9121 
G01 X44.7132 Y25.5508 
G01 X44.7493 Y25.1842 
G01 X44.7493 Y13.8158 
G01 X44.7132 Y13.4492 
G01 X44.6413 Y13.0879 
G01 X44.5344 Y12.7354 
G01 X44.3934 Y12.3950 
G01 X44.2198 Y12.0702 
G01 X44.0151 Y11.7639 
G01 X43.7814 Y11.4791 
G01 X43.5209 Y11.2186 
G01 X43.2361 Y10.9849 
G01 X42.9298 Y10.7802 
G01 X42.6050 Y10.6066 
G01 X42.2646 Y10.4656 
G01 X41.9121 Y10.3587 
G01 X41.5508 Y10.2868 
G01 X41.1842 Y10.2507 
G01 X29.0000 Y10.2507 
G01 X28.9105 Y10.2484 
G01 X28.7324 Y10.2296 
G01 X28.5572 Y10.1924 
G01 X28.3869 Y10.1371 
G01 X28.2234 Y10.0642 
G01 X28.0683 Y9.9747 
G01 X27.9234 Y9.8695 
G01 X27.7904 Y9.7496 
G01 X27.6705 Y9.6166 
G01 X27.5653 Y9.4717 
G01 X27.4758 Y9.3166 
G01 X27.4029 Y9.1531 
G01 X27.3476 Y8.9828 
G01 X27.3104 Y8.8076 
G01 X27.2916 Y8.6295 
G01 X27.2893 Y8.5400 
G01 X27.2893 Y5.2179 
G01 X27.3166 Y5.1771 
G01 X27.3826 Y5.0176 
G01 X27.4163 Y4.8483 
G01 X27.4163 Y3.1517 
G01 X27.3826 Y2.9824 
G01 X27.3166 Y2.8229 
G01 X27.2207 Y2.6794 
G01 X27.0986 Y2.5573 
G01 X26.9551 Y2.4614 
G01 X26.7956 Y2.3954 
G01 X26.6263 Y2.3617 
G01 X26.4537 Y2.3617 
G01 X26.2844 Y2.3954 
G01 X26.1249 Y2.4614 
G01 X25.9814 Y2.5573 
G01 X25.8593 Y2.6794 
G01 X25.7634 Y2.8229 
G01 X25.6974 Y2.9824 
G01 X25.6637 Y3.1517 
G00 Z2.5400 
G00 X28.2037 Y3.1517 
G01 Z-0.1778 F200.00 
G01 X28.2037 Y4.8483 F200.00 
G01 X28.2374 Y5.0176 
G01 X28.3034 Y5.1771 
G01 X28.3307 Y5.2179 
G01 X28.3307 Y8.1994 
G01 X28.3647 Y8.4357 
G01 X28.4320 Y8.6648 
G01 X28.5311 Y8.8820 
G01 X28.6602 Y9.0829 
G01 X28.8166 Y9.2634 
G01 X28.9971 Y9.4198 
G01 X29.1979 Y9.5488 
G01 X29.4151 Y9.6480 
G01 X29.6443 Y9.7153 
G01 X29.8806 Y9.7493 
G01 X29.9262 Y9.7493 
G01 X41.0000 Y9.7493 
G01 X41.1669 Y9.7526 
G01 X41.4996 Y9.7788 
G01 X41.8293 Y9.8310 
G01 X42.1538 Y9.9089 
G01 X42.4712 Y10.0120 
G01 X42.7796 Y10.1398 
G01 X43.0770 Y10.2913 
G01 X43.3616 Y10.4657 
G01 X43.6316 Y10.6618 
G01 X43.8854 Y10.8786 
G01 X44.1214 Y11.1146 
G01 X44.3381 Y11.3684 
G01 X44.5343 Y11.6384 
G01 X44.7087 Y11.9230 
G01 X44.8602 Y12.2204 
G01 X44.9880 Y12.5288 
G01 X45.0911 Y12.8462 
G01 X45.1690 Y13.1707 
G01 X45.2212 Y13.5004 
G01 X45.2474 Y13.8331 
G01 X45.2507 Y14.0000 
G01 X45.2507 Y25.0000 
G01 X45.2474 Y25.1669 
G01 X45.2212 Y25.4996 
G01 X45.1690 Y25.8293 
G01 X45.0911 Y26.1538 
G01 X44.9880 Y26.4712 
G01 X44.8602 Y26.7796 
G01 X44.7087 Y27.0770 
G01 X44.5343 Y27.3616 
G01 X44.3381 Y27.6316 
G01 X44.1214 Y27.8854 
G01 X43.8854 Y28.1214 
G01 X43.6316 Y28.3381 
G01 X43.3616 Y28.5343 
G01 X43.0770 Y28.7087 
G01 X42.7796 Y28.8602 
G01 X42.4712 Y28.9880 
G01 X42.1538 Y29.0911 
G01 X41.8293 Y29.1690 
G01 X41.4996 Y29.2212 
G01 X41.1669 Y29.2474 
G01 X41.0000 Y29.2507 
G01 X37.3035 Y29.2507 
G01 X36.9123 Y29.2870 
G01 X36.5261 Y29.3591 
G01 X36.1482 Y29.4667 
G01 X35.7818 Y29.6086 
G01 X35.4301 Y29.7838 
G01 X35.0960 Y29.9906 
G01 X34.7824 Y30.2274 
G01 X34.4921 Y30.4921 
G01 X34.2274 Y30.7825 
G01 X33.9906 Y31.0960 
G01 X33.7837 Y31.4301 
G01 X33.6086 Y31.7818 
G01 X33.4667 Y32.1482 
G01 X33.3591 Y32.5261 
G01 X33.3106 Y32.7857 
G01 X33.2773 Y32.7857 
G01 X33.2353 Y32.8031 
G01 X33.2031 Y32.8353 
G01 X33.1857 Y32.8773 
G01 X33.1857 Y34.1227 
G01 X33.2031 Y34.1647 
G01 X33.2353 Y34.1969 
G01 X33.2773 Y34.2143 
G01 X33.7664 Y34.2143 
G01 X33.7814 Y34.2205 
G01 X33.9262 Y34.2493 
G01 X34.0738 Y34.2493 
G01 X34.2186 Y34.2205 
G01 X34.2335 Y34.2143 
G01 X34.7227 Y34.2143 
G01 X34.7647 Y34.1969 
G01 X34.7969 Y34.1647 
G01 X34.8143 Y34.1227 
G01 X34.8143 Y32.9134 
G01 X34.8224 Y32.8702 
G01 X34.8919 Y32.6258 
G01 X34.9837 Y32.3889 
G01 X35.0969 Y32.1615 
G01 X35.2307 Y31.9455 
G01 X35.3838 Y31.7427 
G01 X35.5550 Y31.5550 
G01 X35.7427 Y31.3838 
G01 X35.9455 Y31.2307 
G01 X36.1615 Y31.0969 
G01 X36.3889 Y30.9837 
G01 X36.6258 Y30.8919 
G01 X36.8702 Y30.8224 
G01 X37.1200 Y30.7757 
G01 X37.3730 Y30.7522 
G01 X37.5000 Y30.7493 
G01 X41.2259 Y30.7493 
G01 X41.6763 Y30.7139 
G01 X42.1225 Y30.6432 
G01 X42.5618 Y30.5377 
G01 X42.9915 Y30.3981 
G01 X43.4089 Y30.2252 
G01 X43.8114 Y30.0201 
G01 X44.1966 Y29.7841 
G01 X44.5621 Y29.5185 
G01 X44.9056 Y29.2251 
G01 X45.2251 Y28.9056 
G01 X45.5185 Y28.5621 
G01 X45.7841 Y28.1966 
G01 X46.0201 Y27.8114 
G01 X46.2252 Y27.4089 
G01 X46.3981 Y26.9915 
G01 X46.5377 Y26.5618 
G01 X46.6432 Y26.1225 
G01 X46.7139 Y25.6763 
G01 X46.7493 Y25.2259 
G01 X46.7493 Y13.7741 
G01 X46.7139 Y13.3237 
G01 X46.6432 Y12.8775 
G01 X46.5377 Y12.4382 
G01 X46.3981 Y12.0085 
G01 X46.2252 Y11.5911 
G01 X46.0201 Y11.1886 
G01 X45.7841 Y10.8034 
G01 X45.5185 Y10.4379 
G01 X45.2251 Y10.0944 
G01 X44.9056 Y9.7749 
G01 X44.5621 Y9.4815 
G01 X44.1966 Y9.2159 
G01 X43.8114 Y8.9799 
G01 X43.4089 Y8.7748 
G01 X42.9915 Y8.6019 
G01 X42.5618 Y8.4623 
G01 X42.1225 Y8.3568 
G01 X41.6763 Y8.2861 
G01 X41.2259 Y8.2507 
G01 X30.0000 Y8.2507 
G01 X29.9878 Y8.2503 
G01 X29.9637 Y8.2468 
G01 X29.9403 Y8.2399 
G01 X29.9182 Y8.2298 
G01 X29.8977 Y8.2167 
G01 X29.8793 Y8.2007 
G01 X29.8633 Y8.1823 
G01 X29.8502 Y8.1618 
G01 X29.8401 Y8.1397 
G01 X29.8332 Y8.1163 
G01 X29.8297 Y8.0922 
G01 X29.8293 Y8.0800 
G01 X29.8293 Y5.2179 
G01 X29.8566 Y5.1771 
G01 X29.9226 Y5.0176 
G01 X29.9563 Y4.8483 
G01 X29.9563 Y3.1517 
G01 X29.9226 Y2.9824 
G01 X29.8566 Y2.8229 
G01 X29.7607 Y2.6794 
G01 X29.6386 Y2.5573 
G01 X29.4951 Y2.4614 
G01 X29.3356 Y2.3954 
G01 X29.1663 Y2.3617 
G01 X28.9937 Y2.3617 
G01 X28.8244 Y2.3954 
G01 X28.6649 Y2.4614 
G01 X28.5214 Y2.5573 
G01 X28.3993 Y2.6794 
G01 X28.3034 Y2.8229 
G01 X28.2374 Y2.9824 
G01 X28.2037 Y3.1517 
G00 Z2.5400 
G00 X30.7437 Y3.1517 
G01 Z-0.1778 F200.00 
G01 X30.7437 Y4.8483 F200.00 
G01 X30.7774 Y5.0176 
G01 X30.8434 Y5.1771 
G01 X30.8707 Y5.2179 
G01 X30.8707 Y5.7596 
G01 X30.9071 Y6.0363 
G01 X30.9794 Y6.3059 
G01 X31.0862 Y6.5638 
G01 X31.2258 Y6.8055 
G01 X31.3957 Y7.0270 
G01 X31.5930 Y7.2243 
G01 X31.8145 Y7.3942 
G01 X32.0562 Y7.5338 
G01 X32.3141 Y7.6406 
G01 X32.5837 Y7.7129 
G01 X32.8604 Y7.7493 
G01 X41.0000 Y7.7493 
G01 X41.2231 Y7.7533 
G01 X41.6682 Y7.7851 
G01 X42.1098 Y7.8486 
G01 X42.5458 Y7.9435 
G01 X42.9740 Y8.0692 
G01 X43.3920 Y8.2251 
G01 X43.7979 Y8.4105 
G01 X44.1895 Y8.6243 
G01 X44.5649 Y8.8655 
G01 X44.9221 Y9.1329 
G01 X45.2593 Y9.4251 
G01 X45.5749 Y9.7407 
G01 X45.8671 Y10.0779 
G01 X46.1345 Y10.4351 
G01 X46.3757 Y10.8105 
G01 X46.5895 Y11.2021 
G01 X46.7749 Y11.6080 
G01 X46.9308 Y12.0260 
G01 X47.0565 Y12.4542 
G01 X47.1514 Y12.8902 
G01 X47.2149 Y13.3318 
G01 X47.2467 Y13.7769 
G01 X47.2507 Y14.0000 
G01 X47.2507 Y25.0000 
G01 X47.2467 Y25.2231 
G01 X47.2149 Y25.6682 
G01 X47.1514 Y26.1098 
G01 X47.0565 Y26.5458 
G01 X46.9308 Y26.9740 
G01 X46.7749 Y27.3920 
G01 X46.5895 Y27.7979 
G01 X46.3757 Y28.1895 
G01 X46.1345 Y28.5649 
G01 X45.8671 Y28.9221 
G01 X45.5749 Y29.2593 
G01 X45.2593 Y29.5749 
G01 X44.9221 Y29.8671 
G01 X44.5649 Y30.1345 
G01 X44.1895 Y30.3757 
G01 X43.7979 Y30.5895 
G01 X43.3920 Y30.7749 
G01 X42.9740 Y30.9308 
G01 X42.5458 Y31.0565 
G01 X42.1098 Y31.1514 
G01 X41.6682 Y31.2149 
G01 X41.2231 Y31.2467 
G01 X41.0000 Y31.2507 
G01 X39.8749 Y31.2507 
G01 X39.6272 Y31.2863 
G01 X39.3871 Y31.3568 
G01 X39.1595 Y31.4608 
G01 X38.9490 Y31.5960 
G01 X38.7599 Y31.7599 
G01 X38.5960 Y31.9490 
G01 X38.4608 Y32.1595 
G01 X38.3568 Y32.3871 
G01 X38.2863 Y32.6272 
G01 X38.2627 Y32.7918 
G01 X38.2353 Y32.8031 
G01 X38.2031 Y32.8353 
G01 X38.1857 Y32.8773 
G01 X38.1857 Y34.1227 
G01 X38.2031 Y34.1647 
G01 X38.2353 Y34.1969 
G01 X38.2773 Y34.2143 
G01 X38.7665 Y34.2143 
G01 X38.7814 Y34.2205 
G01 X38.9262 Y34.2493 
G01 X39.0738 Y34.2493 
G01 X39.2186 Y34.2205 
G01 X39.2335 Y34.2143 
G01 X39.7227 Y34.2143 
G01 X39.7647 Y34.1969 
G01 X39.7969 Y34.1647 
G01 X39.8143 Y34.1227 
G01 X39.8143 Y32.8773 
G01 X39.8017 Y32.8469 
G01 X39.8227 Y32.8227 
G01 X39.8498 Y32.7993 
G01 X39.8798 Y32.7800 
G01 X39.9124 Y32.7651 
G01 X39.9467 Y32.7550 
G01 X39.9821 Y32.7499 
G01 X40.0000 Y32.7493 
G01 X41.2768 Y32.7493 
G01 X41.8289 Y32.7098 
G01 X42.3768 Y32.6310 
G01 X42.9177 Y32.5134 
G01 X43.4488 Y32.3574 
G01 X43.9674 Y32.1640 
G01 X44.4709 Y31.9340 
G01 X44.9568 Y31.6688 
G01 X45.4224 Y31.3695 
G01 X45.8655 Y31.0378 
G01 X46.2839 Y30.6753 
G01 X46.6753 Y30.2839 
G01 X47.0378 Y29.8655 
G01 X47.3695 Y29.4224 
G01 X47.6688 Y28.9568 
G01 X47.9340 Y28.4709 
G01 X48.1640 Y27.9674 
G01 X48.3574 Y27.4488 
G01 X48.5134 Y26.9177 
G01 X48.6310 Y26.3768 
G01 X48.7098 Y25.8289 
G01 X48.7493 Y25.2768 
G01 X48.7493 Y13.7232 
G01 X48.7098 Y13.1711 
G01 X48.6310 Y12.6232 
G01 X48.5134 Y12.0823 
G01 X48.3574 Y11.5512 
G01 X48.1640 Y11.0326 
G01 X47.9340 Y10.5291 
G01 X47.6688 Y10.0432 
G01 X47.3695 Y9.5776 
G01 X47.0378 Y9.1345 
G01 X46.6753 Y8.7161 
G01 X46.2839 Y8.3247 
G01 X45.8655 Y7.9622 
G01 X45.4224 Y7.6305 
G01 X44.9568 Y7.3312 
G01 X44.4709 Y7.0660 
G01 X43.9674 Y6.8360 
G01 X43.4488 Y6.6426 
G01 X42.9177 Y6.4866 
G01 X42.3768 Y6.3690 
G01 X41.8289 Y6.2902 
G01 X41.2768 Y6.2507 
G01 X33.0000 Y6.2507 
G01 X32.9588 Y6.2493 
G01 X32.8770 Y6.2386 
G01 X32.7973 Y6.2172 
G01 X32.7210 Y6.1857 
G01 X32.6496 Y6.1444 
G01 X32.5842 Y6.0942 
G01 X32.5258 Y6.0358 
G01 X32.4756 Y5.9704 
G01 X32.4343 Y5.8990 
G01 X32.4028 Y5.8227 
G01 X32.3814 Y5.7430 
G01 X32.3706 Y5.6612 
G01 X32.3693 Y5.6200 
G01 X32.3693 Y5.2179 
G01 X32.3966 Y5.1771 
G01 X32.4626 Y5.0176 
G01 X32.4963 Y4.8483 
G01 X32.4963 Y3.1517 
G01 X32.4626 Y2.9824 
G01 X32.3966 Y2.8229 
G01 X32.3007 Y2.6794 
G01 X32.1786 Y2.5573 
G01 X32.0351 Y2.4614 
G01 X31.8756 Y2.3954 
G01 X31.7063 Y2.3617 
G01 X31.5337 Y2.3617 
G01 X31.3644 Y2.3954 
G01 X31.2049 Y2.4614 
G01 X31.0614 Y2.5573 
G01 X30.9393 Y2.6794 
G01 X30.8434 Y2.8229 
G01 X30.7774 Y2.9824 
G01 X30.7437 Y3.1517 
G00 Z2.5400 
G00 X31.2293 Y18.2993 
G01 Z-0.1778 F200.00 
G01 X40.2627 Y18.2993 F200.00 
G01 X40.4452 Y18.2671 
G01 X40.6194 Y18.2037 
G01 X40.7048 Y18.1544 
G01 X40.8588 Y18.1544 
G01 X41.3944 Y17.6188 
G01 X41.3944 Y16.8612 
G01 X40.8588 Y16.3256 
G01 X40.1012 Y16.3256 
G01 X39.6261 Y16.8007 
G01 X26.6030 Y16.8007 
G01 X26.4612 Y16.7059 
G01 X26.2878 Y16.6341 
G01 X26.1038 Y16.5975 
G01 X25.9162 Y16.5975 
G01 X25.7322 Y16.6341 
G01 X25.5588 Y16.7059 
G01 X25.4028 Y16.8101 
G01 X25.2701 Y16.9428 
G01 X25.1659 Y17.0988 
G01 X25.0941 Y17.2722 
G01 X25.0575 Y17.4562 
G01 X25.0575 Y17.6438 
G01 X25.0941 Y17.8278 
G01 X25.1659 Y18.0012 
G01 X25.2701 Y18.1572 
G01 X25.4028 Y18.2899 
G01 X25.5588 Y18.3941 
G01 X25.7322 Y18.4659 
G01 X25.9162 Y18.5025 
G01 X26.1038 Y18.5025 
G01 X26.2878 Y18.4659 
G01 X26.4612 Y18.3941 
G01 X26.6030 Y18.2993 
G01 X29.7307 Y18.2993 
G01 X29.7307 Y22.2437 
G01 X29.7053 Y22.2691 
G01 X29.7053 Y22.9109 
G01 X30.1591 Y23.3647 
G01 X30.8009 Y23.3647 
G01 X31.2547 Y22.9109 
G01 X31.2547 Y22.2691 
G01 X31.2293 Y22.2437 
G01 X31.2293 Y18.2993 
G00 Z2.5400 
G00 X34.7053 Y22.5691 
G01 Z-0.1778 F200.00 
G01 X34.7053 Y23.2109 F200.00 
G01 X34.7307 Y23.2363 
G01 X34.7307 Y24.1804 
G01 X34.7400 Y24.2507 
G01 X29.3104 Y24.2507 
G01 X27.3205 Y22.2609 
G01 X27.2917 Y22.2320 
G01 X27.1097 Y22.0924 
G01 X26.9111 Y21.9777 
G01 X26.6993 Y21.8900 
G01 X26.6962 Y21.8892 
G01 X26.6172 Y21.8101 
G01 X26.4612 Y21.7059 
G01 X26.2878 Y21.6341 
G01 X26.1038 Y21.5975 
G01 X25.9162 Y21.5975 
G01 X25.7322 Y21.6341 
G01 X25.5588 Y21.7059 
G01 X25.4028 Y21.8101 
G01 X25.2701 Y21.9428 
G01 X25.1659 Y22.0988 
G01 X25.0941 Y22.2722 
G01 X25.0575 Y22.4562 
G01 X25.0575 Y22.6438 
G01 X25.0941 Y22.8278 
G01 X25.1659 Y23.0012 
G01 X25.2701 Y23.1572 
G01 X25.4028 Y23.2899 
G01 X25.5588 Y23.3941 
G01 X25.7322 Y23.4659 
G01 X25.9162 Y23.5025 
G01 X26.1038 Y23.5025 
G01 X26.2878 Y23.4659 
G01 X26.3715 Y23.4312 
G01 X28.4180 Y25.4777 
G01 X28.5223 Y25.5820 
G01 X28.6451 Y25.6640 
G01 X28.7814 Y25.7205 
G01 X28.9262 Y25.7493 
G01 X39.3404 Y25.7493 
G01 X39.5678 Y25.7194 
G01 X39.7893 Y25.6600 
G01 X40.0011 Y25.5723 
G01 X40.1997 Y25.4576 
G01 X40.3817 Y25.3180 
G01 X40.4105 Y25.2891 
G01 X40.6253 Y25.0744 
G01 X40.8588 Y25.0744 
G01 X41.3944 Y24.5388 
G01 X41.3944 Y23.7812 
G01 X40.8588 Y23.2456 
G01 X40.1012 Y23.2456 
G01 X39.5656 Y23.7812 
G01 X39.5656 Y24.0147 
G01 X39.4030 Y24.1773 
G01 X39.3911 Y24.1885 
G01 X39.3651 Y24.2084 
G01 X39.3367 Y24.2248 
G01 X39.3064 Y24.2374 
G01 X39.2747 Y24.2459 
G01 X39.2422 Y24.2502 
G01 X39.2258 Y24.2507 
G01 X36.3104 Y24.2507 
G01 X36.3027 Y24.2431 
G01 X36.2915 Y24.2311 
G01 X36.2715 Y24.2051 
G01 X36.2552 Y24.1767 
G01 X36.2426 Y24.1464 
G01 X36.2341 Y24.1147 
G01 X36.2298 Y24.0822 
G01 X36.2293 Y24.0658 
G01 X36.2293 Y23.2363 
G01 X36.2547 Y23.2109 
G01 X36.2547 Y22.5691 
G01 X35.8009 Y22.1153 
G01 X35.1591 Y22.1153 
G01 X34.7053 Y22.5691 
G00 Z2.5400 
G00 X39.5402 Y21.3025 
G01 Z-0.1778 F200.00 
G01 X39.5402 Y21.2307 F200.00 
G01 X40.0907 Y20.6802 
G01 X40.1625 Y20.6802 
G01 X40.1625 Y20.7056 
G01 X40.1012 Y20.7056 
G01 X39.5656 Y21.2412 
G01 X39.5656 Y21.3025 
G01 X39.5402 Y21.3025 
G00 Z2.5400 
G00 X40.7975 Y20.7056 
G01 Z-0.1778 F200.00 
G01 X40.7975 Y20.6802 F200.00 
G01 X40.8693 Y20.6802 
G01 X41.4198 Y21.2307 
G01 X41.4198 Y21.3025 
G01 X41.3944 Y21.3025 
G01 X41.3944 Y21.2412 
G01 X40.8588 Y20.7056 
G01 X40.7975 Y20.7056 
G00 Z2.5400 
G00 X40.7975 Y13.7856 
G01 Z-0.1778 F200.00 
G01 X40.7975 Y13.7602 F200.00 
G01 X40.8693 Y13.7602 
G01 X41.4198 Y14.3107 
G01 X41.4198 Y14.3825 
G01 X41.3944 Y14.3825 
G01 X41.3944 Y14.3212 
G01 X40.8588 Y13.7856 
G01 X40.7975 Y13.7856 
G00 Z2.5400 
G00 X40.1625 Y13.7856 
G01 Z-0.1778 F200.00 
G01 X40.1012 Y13.7856 F200.00 
G01 X39.5656 Y14.3212 
G01 X39.5656 Y14.3825 
G01 X39.5402 Y14.3825 
G01 X39.5402 Y14.3107 
G01 X40.0907 Y13.7602 
G01 X40.1625 Y13.7602 
G01 X40.1625 Y13.7856 
G00 Z2.5400 
G00 X50.6781 Y11.7817 
G01 Z-0.1778 F200.00 
G01 X50.2960 Y11.1200 F200.00 
G01 X50.0983 Y10.3820 
G01 X50.0983 Y9.6180 
G01 X50.2960 Y8.8800 
G01 X50.6781 Y8.2183 
G01 X51.2183 Y7.6781 
G01 X51.8800 Y7.2960 
G01 X52.6180 Y7.0983 
G01 X53.3820 Y7.0983 
G01 X54.1200 Y7.2960 
G01 X54.7817 Y7.6781 
G01 X55.3219 Y8.2183 
G01 X55.7039 Y8.8800 
G01 X55.9017 Y9.6180 
G01 X55.9017 Y10.3820 
G01 X55.7039 Y11.1200 
G01 X55.3219 Y11.7817 
G01 X54.7817 Y12.3219 
G01 X54.1200 Y12.7040 
G01 X53.3820 Y12.9017 
G01 X52.6180 Y12.9017 
G01 X51.8800 Y12.7040 
G01 X51.2183 Y12.3219 
G01 X50.6781 Y11.7817 
G00 Z2.5400 
G00 X50.6043 Y28.8779 
G01 Z-0.1778 F200.00 
G01 X51.4940 Y28.3642 F200.00 
G01 X52.4863 Y28.0983 
G01 X53.5137 Y28.0983 
G01 X54.5060 Y28.3642 
G01 X55.3957 Y28.8779 
G01 X56.1221 Y29.6043 
G01 X56.6358 Y30.4940 
G01 X56.9017 Y31.4863 
G01 X56.9017 Y32.5137 
G01 X56.6358 Y33.5060 
G01 X56.1221 Y34.3957 
G01 X55.3957 Y35.1221 
G01 X54.5060 Y35.6358 
G01 X53.5137 Y35.9017 
G01 X52.4863 Y35.9017 
G01 X51.4940 Y35.6358 
G01 X50.6043 Y35.1221 
G01 X49.8779 Y34.3957 
G01 X49.3642 Y33.5060 
G01 X49.0983 Y32.5137 
G01 X49.0983 Y31.4863 
G01 X49.3642 Y30.4940 
G01 X49.8779 Y29.6043 
G01 X50.6043 Y28.8779 
G00 Z2.5400 
G00 X40.0270 Y35.6815 
G01 Z-0.1778 F200.00 
G01 X40.0857 Y35.8233 F200.00 
G01 X40.0857 Y37.1767 
G01 X40.0528 Y37.2561 
G01 X40.0423 Y37.2742 
G01 X40.0369 Y37.2945 
G01 X40.0289 Y37.3139 
G01 X40.0261 Y37.3347 
G01 X40.0207 Y37.3550 
G01 X40.0207 Y37.3760 
G01 X40.0180 Y37.3968 
G01 X40.0207 Y37.4176 
G01 X40.0207 Y38.5293 
G01 X39.7467 Y39.5519 
G01 X39.2174 Y40.4688 
G01 X38.4688 Y41.2174 
G01 X37.5519 Y41.7467 
G01 X36.5293 Y42.0207 
G01 X20.6799 Y42.0207 
G01 X20.0712 Y41.8229 
G01 X19.5533 Y41.4467 
G01 X19.1771 Y40.9288 
G01 X18.9793 Y40.3200 
G01 X18.9793 Y40.2964 
G01 X18.9577 Y40.2156 
G01 X18.9159 Y40.1432 
G01 X18.8567 Y40.0841 
G01 X18.7843 Y40.0423 
G01 X18.7036 Y40.0207 
G01 X17.3584 Y40.0207 
G01 X17.2777 Y40.0423 
G01 X17.2711 Y40.0461 
G01 X16.3767 Y40.0461 
G01 X15.7639 Y39.4333 
G01 X15.7639 Y38.5667 
G01 X16.3767 Y37.9539 
G01 X17.2711 Y37.9539 
G01 X17.2777 Y37.9577 
G01 X17.3584 Y37.9793 
G01 X19.3200 Y37.9793 
G01 X19.9288 Y38.1771 
G01 X20.4467 Y38.5533 
G01 X20.8229 Y39.0712 
G01 X21.0207 Y39.6799 
G01 X21.0207 Y39.7036 
G01 X21.0423 Y39.7844 
G01 X21.0841 Y39.8567 
G01 X21.1432 Y39.9159 
G01 X21.2156 Y39.9577 
G01 X21.2964 Y39.9793 
G01 X22.2922 Y39.9793 
G01 X22.3088 Y39.9819 
G01 X22.3338 Y39.9793 
G01 X22.3590 Y39.9793 
G01 X22.3752 Y39.9749 
G01 X22.3920 Y39.9732 
G01 X22.4154 Y39.9642 
G01 X22.4397 Y39.9577 
G01 X22.4543 Y39.9492 
G01 X22.4700 Y39.9432 
G01 X22.4904 Y39.9284 
G01 X22.5121 Y39.9159 
G01 X22.5240 Y39.9040 
G01 X22.5376 Y39.8941 
G01 X22.5535 Y39.8745 
G01 X22.5713 Y39.8567 
G01 X22.5797 Y39.8422 
G01 X22.5902 Y39.8291 
G01 X22.6005 Y39.8061 
G01 X22.6131 Y39.7844 
G01 X22.6174 Y39.7681 
G01 X22.6242 Y39.7527 
G01 X22.6282 Y39.7279 
G01 X22.6347 Y39.7036 
G01 X22.6347 Y39.6868 
G01 X22.6373 Y39.6702 
G01 X22.6347 Y39.6452 
G01 X22.6347 Y39.6200 
G01 X22.6303 Y39.6038 
G01 X22.6286 Y39.5870 
G01 X22.6196 Y39.5636 
G01 X22.6131 Y39.5392 
G01 X22.6046 Y39.5247 
G01 X22.5986 Y39.5090 
G01 X22.5838 Y39.4886 
G01 X22.5713 Y39.4669 
G01 X22.5594 Y39.4550 
G01 X22.1771 Y38.9288 
G01 X21.9793 Y38.3200 
G01 X21.9793 Y37.2964 
G01 X21.9577 Y37.2156 
G01 X21.9159 Y37.1432 
G01 X21.8567 Y37.0841 
G01 X21.7843 Y37.0423 
G01 X21.7036 Y37.0207 
G01 X17.3584 Y37.0207 
G01 X17.2777 Y37.0423 
G01 X17.2711 Y37.0461 
G01 X16.3767 Y37.0461 
G01 X15.7639 Y36.4333 
G01 X15.7639 Y35.5667 
G01 X16.3767 Y34.9539 
G01 X17.2711 Y34.9539 
G01 X17.2777 Y34.9577 
G01 X17.3584 Y34.9793 
G01 X22.3200 Y34.9793 
G01 X22.9288 Y35.1771 
G01 X23.4550 Y35.5594 
G01 X23.4669 Y35.5713 
G01 X23.4886 Y35.5838 
G01 X23.5090 Y35.5986 
G01 X23.5247 Y35.6046 
G01 X23.5392 Y35.6131 
G01 X23.5636 Y35.6196 
G01 X23.5870 Y35.6286 
G01 X23.6038 Y35.6303 
G01 X23.6200 Y35.6347 
G01 X23.6452 Y35.6347 
G01 X23.6702 Y35.6373 
G01 X23.6868 Y35.6347 
G01 X23.7036 Y35.6347 
G01 X23.7279 Y35.6282 
G01 X23.7528 Y35.6242 
G01 X23.7681 Y35.6174 
G01 X23.7843 Y35.6131 
G01 X23.8061 Y35.6005 
G01 X23.8291 Y35.5902 
G01 X23.8422 Y35.5797 
G01 X23.8567 Y35.5713 
G01 X23.8745 Y35.5535 
G01 X23.8941 Y35.5376 
G01 X23.9040 Y35.5240 
G01 X23.9159 Y35.5121 
G01 X23.9284 Y35.4904 
G01 X23.9432 Y35.4700 
G01 X23.9492 Y35.4543 
G01 X23.9577 Y35.4397 
G01 X23.9642 Y35.4154 
G01 X23.9732 Y35.3920 
G01 X23.9749 Y35.3752 
G01 X23.9793 Y35.3590 
G01 X23.9793 Y35.3338 
G01 X23.9819 Y35.3088 
G01 X23.9793 Y35.2922 
G01 X23.9793 Y35.0292 
G01 X23.9816 Y35.0167 
G01 X23.9793 Y34.9875 
G01 X23.9793 Y34.9582 
G01 X23.9760 Y34.9460 
G01 X23.9705 Y34.8758 
G01 X23.9685 Y34.8381 
G01 X23.9672 Y34.8341 
G01 X23.9669 Y34.8299 
G01 X23.9543 Y34.7944 
G01 X23.9019 Y34.6332 
G01 X23.9011 Y34.6248 
G01 X23.8891 Y34.5935 
G01 X23.8787 Y34.5617 
G01 X23.8741 Y34.5546 
G01 X23.8711 Y34.5467 
G01 X23.8514 Y34.5196 
G01 X23.8332 Y34.4916 
G01 X23.8269 Y34.4859 
G01 X23.7444 Y34.3724 
G01 X23.7410 Y34.3647 
G01 X23.7200 Y34.3387 
G01 X23.7003 Y34.3116 
G01 X23.6937 Y34.3063 
G01 X23.6884 Y34.2997 
G01 X23.6613 Y34.2801 
G01 X23.6353 Y34.2590 
G01 X23.6276 Y34.2555 
G01 X23.5141 Y34.1731 
G01 X23.5084 Y34.1668 
G01 X23.4803 Y34.1486 
G01 X23.4533 Y34.1289 
G01 X23.4454 Y34.1259 
G01 X23.4383 Y34.1213 
G01 X23.4065 Y34.1109 
G01 X23.3752 Y34.0989 
G01 X23.3668 Y34.0981 
G01 X23.2056 Y34.0457 
G01 X23.1701 Y34.0331 
G01 X23.1659 Y34.0328 
G01 X23.1619 Y34.0315 
G01 X23.1243 Y34.0295 
G01 X23.0540 Y34.0240 
G01 X23.0418 Y34.0207 
G01 X23.0125 Y34.0207 
G01 X22.9832 Y34.0184 
G01 X22.9708 Y34.0207 
G01 X17.3584 Y34.0207 
G01 X17.2777 Y34.0423 
G01 X17.2711 Y34.0461 
G01 X16.3767 Y34.0461 
G01 X15.7639 Y33.4333 
G01 X15.7639 Y32.5667 
G01 X16.3767 Y31.9539 
G01 X17.2711 Y31.9539 
G01 X17.2777 Y31.9577 
G01 X17.3584 Y31.9793 
G01 X23.4784 Y31.9793 
G01 X24.3885 Y32.2750 
G01 X25.1626 Y32.8374 
G01 X25.7250 Y33.6115 
G01 X26.0207 Y34.5216 
G01 X26.0207 Y34.9708 
G01 X26.0184 Y34.9832 
G01 X26.0207 Y35.0125 
G01 X26.0207 Y35.0418 
G01 X26.0237 Y35.0530 
G01 X26.0253 Y35.0837 
G01 X26.0266 Y35.0877 
G01 X26.0269 Y35.0919 
G01 X26.0395 Y35.1274 
G01 X26.0436 Y35.1398 
G01 X26.0444 Y35.1482 
G01 X26.0565 Y35.1795 
G01 X26.0668 Y35.2113 
G01 X26.0714 Y35.2184 
G01 X26.0744 Y35.2263 
G01 X26.0941 Y35.2534 
G01 X26.1123 Y35.2814 
G01 X26.1336 Y35.3078 
G01 X26.1533 Y35.3348 
G01 X26.1598 Y35.3401 
G01 X26.1652 Y35.3467 
G01 X26.1922 Y35.3664 
G01 X26.2183 Y35.3875 
G01 X26.2466 Y35.4059 
G01 X26.2737 Y35.4256 
G01 X26.2816 Y35.4286 
G01 X26.2887 Y35.4332 
G01 X26.3205 Y35.4435 
G01 X26.3518 Y35.4556 
G01 X26.3602 Y35.4564 
G01 X26.3726 Y35.4605 
G01 X26.4081 Y35.4731 
G01 X26.4123 Y35.4734 
G01 X26.4163 Y35.4747 
G01 X26.4470 Y35.4763 
G01 X26.4582 Y35.4793 
G01 X26.4875 Y35.4793 
G01 X26.5168 Y35.4816 
G01 X26.5292 Y35.4793 
G01 X29.2030 Y35.4793 
G01 X29.2100 Y35.4822 
G01 X29.2281 Y35.4927 
G01 X29.2484 Y35.4981 
G01 X29.2678 Y35.5061 
G01 X29.2886 Y35.5089 
G01 X29.3089 Y35.5143 
G01 X29.3299 Y35.5143 
G01 X29.3507 Y35.5170 
G01 X29.3715 Y35.5143 
G01 X29.7767 Y35.5143 
G01 X29.9185 Y35.5730 
G01 X30.0270 Y35.6815 
G01 X30.0857 Y35.8233 
G01 X30.0857 Y37.1767 
G01 X30.0270 Y37.3185 
G01 X29.8786 Y37.4668 
G01 X29.8368 Y37.5392 
G01 X29.8152 Y37.6200 
G01 X29.8152 Y37.7036 
G01 X29.8212 Y37.7262 
G01 X29.8368 Y37.7843 
G01 X29.8786 Y37.8567 
G01 X29.9377 Y37.9159 
G01 X30.0101 Y37.9577 
G01 X30.0909 Y37.9793 
G01 X31.4687 Y37.9793 
G01 X31.4791 Y37.9813 
G01 X31.5104 Y37.9793 
G01 X31.5418 Y37.9793 
G01 X31.5520 Y37.9766 
G01 X31.6620 Y37.9694 
G01 X31.6934 Y37.9694 
G01 X31.7036 Y37.9666 
G01 X31.7141 Y37.9659 
G01 X31.7438 Y37.9559 
G01 X32.0558 Y37.8723 
G01 X32.0672 Y37.8692 
G01 X32.0701 Y37.8675 
G01 X32.1395 Y37.8274 
G01 X32.4022 Y37.6758 
G01 X32.4613 Y37.6167 
G01 X32.6167 Y37.4613 
G01 X32.6758 Y37.4022 
G01 X32.8274 Y37.1395 
G01 X32.8692 Y37.0671 
G01 X32.8706 Y37.0620 
G01 X32.8909 Y36.9864 
G01 X32.8927 Y36.9797 
G01 X32.9143 Y36.8989 
G01 X32.9143 Y35.8233 
G01 X32.9730 Y35.6815 
G01 X33.0815 Y35.5730 
G01 X33.2233 Y35.5143 
G01 X33.6285 Y35.5143 
G01 X33.6493 Y35.5170 
G01 X33.6701 Y35.5143 
G01 X33.6911 Y35.5143 
G01 X33.7114 Y35.5089 
G01 X33.7322 Y35.5061 
G01 X33.7516 Y35.4981 
G01 X33.7719 Y35.4927 
G01 X33.7900 Y35.4822 
G01 X33.7970 Y35.4793 
G01 X34.2030 Y35.4793 
G01 X34.2100 Y35.4822 
G01 X34.2281 Y35.4927 
G01 X34.2484 Y35.4981 
G01 X34.2678 Y35.5061 
G01 X34.2886 Y35.5089 
G01 X34.3089 Y35.5143 
G01 X34.3299 Y35.5143 
G01 X34.3507 Y35.5170 
G01 X34.3715 Y35.5143 
G01 X34.7767 Y35.5143 
G01 X34.9185 Y35.5730 
G01 X35.0270 Y35.6815 
G01 X35.0857 Y35.8233 
G01 X35.0857 Y37.1767 
G01 X35.0270 Y37.3185 
G01 X34.9782 Y37.3673 
G01 X34.9191 Y37.4264 
G01 X34.8773 Y37.4988 
G01 X34.8744 Y37.5095 
G01 X34.8556 Y37.5795 
G01 X34.7808 Y37.8589 
G01 X34.3173 Y38.6618 
G01 X33.6618 Y39.3173 
G01 X33.5774 Y39.3659 
G01 X33.5382 Y39.3886 
G01 X33.5050 Y39.4077 
G01 X33.4459 Y39.4668 
G01 X33.4041 Y39.5392 
G01 X33.3825 Y39.6200 
G01 X33.3825 Y39.7036 
G01 X33.3943 Y39.7478 
G01 X33.4041 Y39.7843 
G01 X33.4162 Y39.8053 
G01 X33.4459 Y39.8567 
G01 X33.5050 Y39.9159 
G01 X33.5774 Y39.9577 
G01 X33.6582 Y39.9793 
G01 X35.9687 Y39.9793 
G01 X35.9791 Y39.9813 
G01 X36.0104 Y39.9793 
G01 X36.0418 Y39.9793 
G01 X36.0520 Y39.9766 
G01 X36.2273 Y39.9651 
G01 X36.2587 Y39.9651 
G01 X36.2689 Y39.9624 
G01 X36.2794 Y39.9617 
G01 X36.3091 Y39.9516 
G01 X36.6777 Y39.8528 
G01 X36.7585 Y39.8312 
G01 X37.1342 Y39.6143 
G01 X37.2066 Y39.5725 
G01 X37.2657 Y39.5133 
G01 X37.5133 Y39.2657 
G01 X37.5725 Y39.2066 
G01 X37.6143 Y39.1342 
G01 X37.8299 Y38.7608 
G01 X37.8338 Y38.7486 
G01 X37.8528 Y38.6777 
G01 X37.9516 Y38.3091 
G01 X37.9617 Y38.2794 
G01 X37.9624 Y38.2689 
G01 X37.9651 Y38.2587 
G01 X37.9651 Y38.2273 
G01 X37.9766 Y38.0520 
G01 X37.9793 Y38.0418 
G01 X37.9793 Y38.0104 
G01 X37.9813 Y37.9791 
G01 X37.9793 Y37.9687 
G01 X37.9793 Y37.4176 
G01 X37.9820 Y37.3968 
G01 X37.9793 Y37.3760 
G01 X37.9793 Y37.3550 
G01 X37.9739 Y37.3347 
G01 X37.9711 Y37.3139 
G01 X37.9631 Y37.2945 
G01 X37.9577 Y37.2742 
G01 X37.9472 Y37.2561 
G01 X37.9143 Y37.1767 
G01 X37.9143 Y35.8233 
G01 X37.9730 Y35.6815 
G01 X38.0815 Y35.5730 
G01 X38.2233 Y35.5143 
G01 X38.6285 Y35.5143 
G01 X38.6493 Y35.5170 
G01 X38.6701 Y35.5143 
G01 X38.6911 Y35.5143 
G01 X38.7114 Y35.5089 
G01 X38.7322 Y35.5061 
G01 X38.7516 Y35.4981 
G01 X38.7719 Y35.4927 
G01 X38.7900 Y35.4822 
G01 X38.7970 Y35.4793 
G01 X39.2030 Y35.4793 
G01 X39.2100 Y35.4822 
G01 X39.2281 Y35.4927 
G01 X39.2484 Y35.4981 
G01 X39.2678 Y35.5061 
G01 X39.2886 Y35.5089 
G01 X39.3089 Y35.5143 
G01 X39.3299 Y35.5143 
G01 X39.3507 Y35.5170 
G01 X39.3715 Y35.5143 
G01 X39.7767 Y35.5143 
G01 X39.9185 Y35.5730 
G01 X40.0270 Y35.6815 
G00 Z2.5400 
G00 X39.7647 Y35.8031 
G01 Z-0.1778 F200.00 
G01 X39.7227 Y35.7857 F200.00 
G01 X39.2335 Y35.7857 
G01 X39.2186 Y35.7795 
G01 X39.0738 Y35.7507 
G01 X38.9262 Y35.7507 
G01 X38.7814 Y35.7795 
G01 X38.7665 Y35.7857 
G01 X38.2773 Y35.7857 
G01 X38.2353 Y35.8031 
G01 X38.2031 Y35.8353 
G01 X38.1857 Y35.8773 
G01 X38.1857 Y37.1227 
G01 X38.2031 Y37.1647 
G01 X38.2353 Y37.1969 
G01 X38.2507 Y37.2033 
G01 X38.2507 Y38.0000 
G01 X38.2480 Y38.1104 
G01 X38.2263 Y38.3302 
G01 X38.1833 Y38.5469 
G01 X38.1191 Y38.7582 
G01 X38.0346 Y38.9623 
G01 X37.9305 Y39.1571 
G01 X37.8078 Y39.3407 
G01 X37.6677 Y39.5115 
G01 X37.5115 Y39.6677 
G01 X37.3407 Y39.8078 
G01 X37.1571 Y39.9305 
G01 X36.9623 Y40.0346 
G01 X36.7582 Y40.1191 
G01 X36.5469 Y40.1833 
G01 X36.3302 Y40.2263 
G01 X36.1104 Y40.2480 
G01 X36.0000 Y40.2507 
G01 X21.0000 Y40.2507 
G01 X20.9821 Y40.2501 
G01 X20.9467 Y40.2450 
G01 X20.9124 Y40.2349 
G01 X20.8799 Y40.2200 
G01 X20.8498 Y40.2007 
G01 X20.8227 Y40.1773 
G01 X20.7993 Y40.1502 
G01 X20.7800 Y40.1201 
G01 X20.7651 Y40.0876 
G01 X20.7550 Y40.0533 
G01 X20.7499 Y40.0179 
G01 X20.7493 Y40.0000 
G01 X20.7493 Y39.8749 
G01 X20.7137 Y39.6272 
G01 X20.6432 Y39.3871 
G01 X20.5392 Y39.1595 
G01 X20.4040 Y38.9490 
G01 X20.2401 Y38.7599 
G01 X20.0510 Y38.5960 
G01 X19.8405 Y38.4608 
G01 X19.6129 Y38.3568 
G01 X19.3728 Y38.2863 
G01 X19.1251 Y38.2507 
G01 X17.1563 Y38.2507 
G01 X17.1309 Y38.2253 
G01 X16.4891 Y38.2253 
G01 X16.0353 Y38.6791 
G01 X16.0353 Y39.3209 
G01 X16.4891 Y39.7747 
G01 X17.1309 Y39.7747 
G01 X17.1563 Y39.7493 
G01 X19.0000 Y39.7493 
G01 X19.0179 Y39.7499 
G01 X19.0533 Y39.7550 
G01 X19.0876 Y39.7651 
G01 X19.1201 Y39.7800 
G01 X19.1502 Y39.7993 
G01 X19.1773 Y39.8227 
G01 X19.2007 Y39.8498 
G01 X19.2200 Y39.8798 
G01 X19.2349 Y39.9124 
G01 X19.2450 Y39.9467 
G01 X19.2501 Y39.9821 
G01 X19.2507 Y40.0000 
G01 X19.2507 Y40.1251 
G01 X19.2863 Y40.3728 
G01 X19.3568 Y40.6129 
G01 X19.4608 Y40.8405 
G01 X19.5960 Y41.0510 
G01 X19.7599 Y41.2401 
G01 X19.9490 Y41.4040 
G01 X20.1595 Y41.5392 
G01 X20.3871 Y41.6432 
G01 X20.6272 Y41.7137 
G01 X20.8749 Y41.7493 
G01 X36.1842 Y41.7493 
G01 X36.5508 Y41.7132 
G01 X36.9121 Y41.6413 
G01 X37.2646 Y41.5344 
G01 X37.6050 Y41.3934 
G01 X37.9298 Y41.2198 
G01 X38.2361 Y41.0151 
G01 X38.5209 Y40.7814 
G01 X38.7814 Y40.5209 
G01 X39.0151 Y40.2361 
G01 X39.2198 Y39.9298 
G01 X39.3934 Y39.6050 
G01 X39.5344 Y39.2646 
G01 X39.6413 Y38.9121 
G01 X39.7132 Y38.5508 
G01 X39.7493 Y38.1842 
G01 X39.7493 Y37.2033 
G01 X39.7647 Y37.1969 
G01 X39.7969 Y37.1647 
G01 X39.8143 Y37.1227 
G01 X39.8143 Y35.8773 
G01 X39.7969 Y35.8353 
G01 X39.7647 Y35.8031 
G00 Z2.5400 
G00 X34.7647 Y35.8031 
G01 Z-0.1778 F200.00 
G01 X34.7227 Y35.7857 F200.00 
G01 X34.2335 Y35.7857 
G01 X34.2186 Y35.7795 
G01 X34.0738 Y35.7507 
G01 X33.9262 Y35.7507 
G01 X33.7814 Y35.7795 
G01 X33.7665 Y35.7857 
G01 X33.2773 Y35.7857 
G01 X33.2353 Y35.8031 
G01 X33.2031 Y35.8353 
G01 X33.1857 Y35.8773 
G01 X33.1857 Y36.9696 
G01 X33.1344 Y37.1274 
G01 X33.0599 Y37.2948 
G01 X32.9683 Y37.4535 
G01 X32.8606 Y37.6018 
G01 X32.7379 Y37.7379 
G01 X32.6018 Y37.8606 
G01 X32.4535 Y37.9683 
G01 X32.2948 Y38.0599 
G01 X32.1274 Y38.1344 
G01 X31.9531 Y38.1910 
G01 X31.7739 Y38.2291 
G01 X31.5916 Y38.2483 
G01 X31.5000 Y38.2507 
G01 X24.0000 Y38.2507 
G01 X23.9821 Y38.2501 
G01 X23.9467 Y38.2450 
G01 X23.9124 Y38.2349 
G01 X23.8799 Y38.2200 
G01 X23.8498 Y38.2007 
G01 X23.8227 Y38.1773 
G01 X23.7993 Y38.1502 
G01 X23.7800 Y38.1201 
G01 X23.7651 Y38.0876 
G01 X23.7550 Y38.0533 
G01 X23.7499 Y38.0179 
G01 X23.7493 Y38.0000 
G01 X23.7493 Y36.8749 
G01 X23.7137 Y36.6272 
G01 X23.6432 Y36.3871 
G01 X23.5392 Y36.1595 
G01 X23.4040 Y35.9490 
G01 X23.2401 Y35.7599 
G01 X23.0510 Y35.5960 
G01 X22.8405 Y35.4608 
G01 X22.6129 Y35.3568 
G01 X22.3728 Y35.2863 
G01 X22.1251 Y35.2507 
G01 X17.1563 Y35.2507 
G01 X17.1309 Y35.2253 
G01 X16.4891 Y35.2253 
G01 X16.0353 Y35.6791 
G01 X16.0353 Y36.3209 
G01 X16.4891 Y36.7747 
G01 X17.1309 Y36.7747 
G01 X17.1563 Y36.7493 
G01 X22.0000 Y36.7493 
G01 X22.0179 Y36.7499 
G01 X22.0533 Y36.7550 
G01 X22.0876 Y36.7651 
G01 X22.1201 Y36.7800 
G01 X22.1502 Y36.7993 
G01 X22.1773 Y36.8227 
G01 X22.2007 Y36.8498 
G01 X22.2200 Y36.8798 
G01 X22.2349 Y36.9124 
G01 X22.2450 Y36.9467 
G01 X22.2501 Y36.9821 
G01 X22.2507 Y37.0000 
G01 X22.2507 Y38.1251 
G01 X22.2863 Y38.3728 
G01 X22.3568 Y38.6129 
G01 X22.4608 Y38.8405 
G01 X22.5960 Y39.0510 
G01 X22.7599 Y39.2401 
G01 X22.9490 Y39.4040 
G01 X23.1595 Y39.5392 
G01 X23.3871 Y39.6432 
G01 X23.6272 Y39.7137 
G01 X23.8749 Y39.7493 
G01 X31.6703 Y39.7493 
G01 X32.0090 Y39.7137 
G01 X32.3421 Y39.6429 
G01 X32.6660 Y39.5376 
G01 X32.9772 Y39.3991 
G01 X33.2721 Y39.2288 
G01 X33.5477 Y39.0286 
G01 X33.8008 Y38.8008 
G01 X34.0286 Y38.5477 
G01 X34.2288 Y38.2721 
G01 X34.3991 Y37.9772 
G01 X34.5376 Y37.6660 
G01 X34.6429 Y37.3421 
G01 X34.6701 Y37.2143 
G01 X34.7227 Y37.2143 
G01 X34.7647 Y37.1969 
G01 X34.7969 Y37.1647 
G01 X34.8143 Y37.1227 
G01 X34.8143 Y35.8773 
G01 X34.7969 Y35.8353 
G01 X34.7647 Y35.8031 
G00 Z2.5400 
G00 X29.7647 Y35.8031 
G01 Z-0.1778 F200.00 
G01 X29.7227 Y35.7857 F200.00 
G01 X29.2335 Y35.7857 
G01 X29.2186 Y35.7795 
G01 X29.0738 Y35.7507 
G01 X26.5000 Y35.7507 
G01 X26.4547 Y35.7493 
G01 X26.3647 Y35.7384 
G01 X26.2767 Y35.7167 
G01 X26.1919 Y35.6846 
G01 X26.1116 Y35.6424 
G01 X26.0370 Y35.5909 
G01 X25.9692 Y35.5308 
G01 X25.9091 Y35.4630 
G01 X25.8576 Y35.3884 
G01 X25.8154 Y35.3081 
G01 X25.7833 Y35.2233 
G01 X25.7616 Y35.1353 
G01 X25.7507 Y35.0453 
G01 X25.7493 Y35.0000 
G01 X25.7493 Y34.8456 
G01 X25.7147 Y34.5388 
G01 X25.6460 Y34.2377 
G01 X25.5440 Y33.9462 
G01 X25.4100 Y33.6680 
G01 X25.2458 Y33.4066 
G01 X25.0532 Y33.1651 
G01 X24.8349 Y32.9468 
G01 X24.5934 Y32.7542 
G01 X24.3320 Y32.5900 
G01 X24.0538 Y32.4560 
G01 X23.7623 Y32.3540 
G01 X23.4612 Y32.2853 
G01 X23.1544 Y32.2507 
G01 X17.1563 Y32.2507 
G01 X17.1309 Y32.2253 
G01 X16.4891 Y32.2253 
G01 X16.0353 Y32.6791 
G01 X16.0353 Y33.3209 
G01 X16.4891 Y33.7747 
G01 X17.1309 Y33.7747 
G01 X17.1563 Y33.7493 
G01 X23.0000 Y33.7493 
G01 X23.0701 Y33.7513 
G01 X23.2095 Y33.7670 
G01 X23.3462 Y33.7982 
G01 X23.4786 Y33.8445 
G01 X23.6050 Y33.9054 
G01 X23.7237 Y33.9800 
G01 X23.8334 Y34.0674 
G01 X23.9326 Y34.1666 
G01 X24.0200 Y34.2762 
G01 X24.0946 Y34.3950 
G01 X24.1555 Y34.5214 
G01 X24.2018 Y34.6538 
G01 X24.2330 Y34.7905 
G01 X24.2487 Y34.9299 
G01 X24.2507 Y35.0000 
G01 X24.2507 Y35.1361 
G01 X24.2835 Y35.4062 
G01 X24.3486 Y35.6704 
G01 X24.4451 Y35.9248 
G01 X24.5716 Y36.1658 
G01 X24.7262 Y36.3897 
G01 X24.9066 Y36.5934 
G01 X25.1103 Y36.7738 
G01 X25.3342 Y36.9284 
G01 X25.5752 Y37.0549 
G01 X25.8296 Y37.1514 
G01 X26.0938 Y37.2165 
G01 X26.3639 Y37.2493 
G01 X29.0738 Y37.2493 
G01 X29.2186 Y37.2205 
G01 X29.2335 Y37.2143 
G01 X29.7227 Y37.2143 
G01 X29.7647 Y37.1969 
G01 X29.7969 Y37.1647 
G01 X29.8143 Y37.1227 
G01 X29.8143 Y35.8773 
G01 X29.7969 Y35.8353 
G01 X29.7647 Y35.8031 
G00 Z2.5400 
G00 X21.9878 Y27.9979 
G01 Z-0.1778 F200.00 
G01 X21.4419 Y28.3131 F200.00 
G01 X20.8331 Y28.4762 
G01 X16.1869 Y28.4762 
G01 X15.5781 Y28.3131 
G01 X15.0322 Y27.9979 
G01 X14.5866 Y27.5523 
G01 X14.2714 Y27.0064 
G01 X14.1083 Y26.3976 
G01 X14.1083 Y25.7674 
G01 X14.2714 Y25.1586 
G01 X14.5866 Y24.6127 
G01 X15.0322 Y24.1671 
G01 X15.5781 Y23.8519 
G01 X16.1869 Y23.6888 
G01 X20.8331 Y23.6888 
G01 X21.4419 Y23.8519 
G01 X21.9878 Y24.1671 
G01 X22.4334 Y24.6127 
G01 X22.7486 Y25.1586 
G01 X22.9117 Y25.7674 
G01 X22.9117 Y26.3976 
G01 X22.7486 Y27.0064 
G01 X22.4334 Y27.5523 
G01 X21.9878 Y27.9979 
G00 Z2.5400 
G00 X21.9203 Y27.6816 
G01 Z-0.1778 F200.00 
G01 X22.1170 Y27.4848 F200.00 
G01 X22.2864 Y27.2641 
G01 X22.4255 Y27.0232 
G01 X22.5320 Y26.7662 
G01 X22.6040 Y26.4974 
G01 X22.6403 Y26.2216 
G01 X22.6403 Y25.9434 
G01 X22.6040 Y25.6676 
G01 X22.5320 Y25.3988 
G01 X22.4255 Y25.1418 
G01 X22.2864 Y24.9009 
G01 X22.1170 Y24.6802 
G01 X21.9203 Y24.4834 
G01 X21.6996 Y24.3141 
G01 X21.4587 Y24.1750 
G01 X21.2017 Y24.0685 
G01 X20.9329 Y23.9965 
G01 X20.6571 Y23.9602 
G01 X16.3629 Y23.9602 
G01 X16.0871 Y23.9965 
G01 X15.8183 Y24.0685 
G01 X15.5613 Y24.1750 
G01 X15.3204 Y24.3141 
G01 X15.0997 Y24.4834 
G01 X14.9029 Y24.6802 
G01 X14.7336 Y24.9009 
G01 X14.5945 Y25.1418 
G01 X14.4880 Y25.3988 
G01 X14.4160 Y25.6676 
G01 X14.3797 Y25.9434 
G01 X14.3797 Y26.2216 
G01 X14.4160 Y26.4974 
G01 X14.4880 Y26.7662 
G01 X14.5945 Y27.0232 
G01 X14.7336 Y27.2641 
G01 X14.9029 Y27.4848 
G01 X15.0997 Y27.6816 
G01 X15.3204 Y27.8509 
G01 X15.5613 Y27.9900 
G01 X15.8183 Y28.0965 
G01 X16.0871 Y28.1685 
G01 X16.3629 Y28.2048 
G01 X20.6571 Y28.2048 
G01 X20.9329 Y28.1685 
G01 X21.2017 Y28.0965 
G01 X21.4587 Y27.9900 
G01 X21.6996 Y27.8509 
G01 X21.9203 Y27.6816 
G00 Z2.5400 
G00 X21.9203 Y15.6166 
G01 Z-0.1778 F200.00 
G01 X22.1170 Y15.4198 F200.00 
G01 X22.2864 Y15.1991 
G01 X22.4255 Y14.9582 
G01 X22.5320 Y14.7012 
G01 X22.6040 Y14.4324 
G01 X22.6403 Y14.1566 
G01 X22.6403 Y13.8784 
G01 X22.6040 Y13.6026 
G01 X22.5320 Y13.3338 
G01 X22.4255 Y13.0768 
G01 X22.2864 Y12.8359 
G01 X22.1170 Y12.6152 
G01 X21.9203 Y12.4184 
G01 X21.6996 Y12.2491 
G01 X21.4587 Y12.1100 
G01 X21.2017 Y12.0035 
G01 X20.9329 Y11.9315 
G01 X20.6571 Y11.8952 
G01 X16.3629 Y11.8952 
G01 X16.0871 Y11.9315 
G01 X15.8183 Y12.0035 
G01 X15.5613 Y12.1100 
G01 X15.3204 Y12.2491 
G01 X15.0997 Y12.4184 
G01 X14.9029 Y12.6152 
G01 X14.7336 Y12.8359 
G01 X14.5945 Y13.0768 
G01 X14.4880 Y13.3338 
G01 X14.4160 Y13.6026 
G01 X14.3797 Y13.8784 
G01 X14.3797 Y14.1566 
G01 X14.4160 Y14.4324 
G01 X14.4880 Y14.7012 
G01 X14.5945 Y14.9582 
G01 X14.7336 Y15.1991 
G01 X14.9029 Y15.4198 
G01 X15.0997 Y15.6166 
G01 X15.3204 Y15.7859 
G01 X15.5613 Y15.9250 
G01 X15.8183 Y16.0315 
G01 X16.0871 Y16.1035 
G01 X16.3629 Y16.1398 
G01 X20.6571 Y16.1398 
G01 X20.9329 Y16.1035 
G01 X21.2017 Y16.0315 
G01 X21.4587 Y15.9250 
G01 X21.6996 Y15.7859 
G01 X21.9203 Y15.6166 
G00 Z2.5400 
G00 X12.2559 Y16.9129 
G01 Z-0.1778 F200.00 
G01 X12.3464 Y17.0375 F200.00 
G01 X12.4162 Y17.1746 
G01 X12.4199 Y17.1857 
G01 X12.3901 Y17.1857 
G01 X12.3541 Y17.0988 
G01 X12.2499 Y16.9428 
G01 X12.1172 Y16.8101 
G01 X11.9612 Y16.7059 
G01 X11.8743 Y16.6699 
G01 X11.8743 Y16.6401 
G01 X11.8854 Y16.6437 
G01 X12.0225 Y16.7136 
G01 X12.1471 Y16.8041 
G01 X12.2559 Y16.9129 
G00 Z2.5400 
G00 X12.3901 Y17.9143 
G01 Z-0.1778 F200.00 
G01 X12.4199 Y17.9143 F200.00 
G01 X12.4162 Y17.9254 
G01 X12.3464 Y18.0625 
G01 X12.2559 Y18.1871 
G01 X12.1471 Y18.2959 
G01 X12.0225 Y18.3864 
G01 X11.8854 Y18.4563 
G01 X11.8743 Y18.4599 
G01 X11.8743 Y18.4301 
G01 X11.9612 Y18.3941 
G01 X12.1172 Y18.2899 
G01 X12.2499 Y18.1572 
G01 X12.3541 Y18.0012 
G01 X12.3901 Y17.9143 
G00 Z2.5400 
G00 X10.6299 Y17.9143 
G01 Z-0.1778 F200.00 
G01 X10.6659 Y18.0012 F200.00 
G01 X10.7701 Y18.1572 
G01 X10.9028 Y18.2899 
G01 X11.0588 Y18.3941 
G01 X11.1457 Y18.4301 
G01 X11.1457 Y18.4599 
G01 X11.1346 Y18.4563 
G01 X10.9975 Y18.3864 
G01 X10.8729 Y18.2959 
G01 X10.7641 Y18.1871 
G01 X10.6736 Y18.0625 
G01 X10.6037 Y17.9254 
G01 X10.6001 Y17.9143 
G01 X10.6299 Y17.9143 
G00 Z2.5400 
G00 X10.6299 Y17.1857 
G01 Z-0.1778 F200.00 
G01 X10.6001 Y17.1857 F200.00 
G01 X10.6037 Y17.1746 
G01 X10.6736 Y17.0375 
G01 X10.7641 Y16.9129 
G01 X10.8729 Y16.8041 
G01 X10.9975 Y16.7136 
G01 X11.1346 Y16.6437 
G01 X11.1457 Y16.6401 
G01 X11.1457 Y16.6699 
G01 X11.0588 Y16.7059 
G01 X10.9028 Y16.8101 
G01 X10.7701 Y16.9428 
G01 X10.6659 Y17.0988 
G01 X10.6299 Y17.1857 
G00 Z2.5400 
G00 X9.9901 Y32.6686 
G01 Z-0.1778 F200.00 
G01 X9.9901 Y32.6825 F200.00 
G01 X9.9647 Y32.6825 
G01 X9.9647 Y32.6791 
G01 X9.5109 Y32.2253 
G01 X9.5075 Y32.2253 
G01 X9.5075 Y32.1999 
G01 X9.5214 Y32.1999 
G01 X9.9901 Y32.6686 
G00 Z2.5400 
G00 X9.9901 Y33.3175 
G01 Z-0.1778 F200.00 
G01 X9.9901 Y33.3314 F200.00 
G01 X9.5214 Y33.8001 
G01 X9.5075 Y33.8001 
G01 X9.5075 Y33.7747 
G01 X9.5109 Y33.7747 
G01 X9.9647 Y33.3209 
G01 X9.9647 Y33.3175 
G01 X9.9901 Y33.3175 
G00 Z2.5400 
G00 X8.4153 Y33.3175 
G01 Z-0.1778 F200.00 
G01 X8.4153 Y33.3209 F200.00 
G01 X8.8691 Y33.7747 
G01 X8.8725 Y33.7747 
G01 X8.8725 Y33.8001 
G01 X8.8586 Y33.8001 
G01 X8.3899 Y33.3314 
G01 X8.3899 Y33.3175 
G01 X8.4153 Y33.3175 
G00 Z2.5400 
G00 X8.4153 Y32.6825 
G01 Z-0.1778 F200.00 
G01 X8.3899 Y32.6825 F200.00 
G01 X8.3899 Y32.6686 
G01 X8.8586 Y32.1999 
G01 X8.8725 Y32.1999 
G01 X8.8725 Y32.2253 
G01 X8.8691 Y32.2253 
G01 X8.4153 Y32.6791 
G01 X8.4153 Y32.6825 
G00 Z2.5400 
G00 X8.8586 Y35.1999 
G01 Z-0.1778 F200.00 
G01 X8.8725 Y35.1999 F200.00 
G01 X8.8725 Y35.2253 
G01 X8.8691 Y35.2253 
G01 X8.4153 Y35.6791 
G01 X8.4153 Y35.6825 
G01 X8.3899 Y35.6825 
G01 X8.3899 Y35.6686 
G01 X8.8586 Y35.1999 
G00 Z2.5400 
G00 X9.5075 Y35.1999 
G01 Z-0.1778 F200.00 
G01 X9.5214 Y35.1999 F200.00 
G01 X9.9901 Y35.6686 
G01 X9.9901 Y35.6825 
G01 X9.9647 Y35.6825 
G01 X9.9647 Y35.6791 
G01 X9.5109 Y35.2253 
G01 X9.5075 Y35.2253 
G01 X9.5075 Y35.1999 
G00 Z2.5400 
G00 X9.5075 Y36.7747 
G01 Z-0.1778 F200.00 
G01 X9.5109 Y36.7747 F200.00 
G01 X9.9647 Y36.3209 
G01 X9.9647 Y36.3175 
G01 X9.9901 Y36.3175 
G01 X9.9901 Y36.3314 
G01 X9.5214 Y36.8001 
G01 X9.5075 Y36.8001 
G01 X9.5075 Y36.7747 
G00 Z2.5400 
G00 X8.8725 Y36.7747 
G01 Z-0.1778 F200.00 
G01 X8.8725 Y36.8001 F200.00 
G01 X8.8586 Y36.8001 
G01 X8.3899 Y36.3314 
G01 X8.3899 Y36.3175 
G01 X8.4153 Y36.3175 
G01 X8.4153 Y36.3209 
G01 X8.8691 Y36.7747 
G01 X8.8725 Y36.7747 
G00 Z2.5400 
G00 X8.8725 Y38.1999 
G01 Z-0.1778 F200.00 
G01 X8.8725 Y38.2253 F200.00 
G01 X8.8691 Y38.2253 
G01 X8.4153 Y38.6791 
G01 X8.4153 Y38.6825 
G01 X8.3899 Y38.6825 
G01 X8.3899 Y38.6686 
G01 X8.8586 Y38.1999 
G01 X8.8725 Y38.1999 
G00 Z2.5400 
G00 X9.5075 Y38.1999 
G01 Z-0.1778 F200.00 
G01 X9.5214 Y38.1999 F200.00 
G01 X9.9901 Y38.6686 
G01 X9.9901 Y38.6825 
G01 X9.9647 Y38.6825 
G01 X9.9647 Y38.6791 
G01 X9.5109 Y38.2253 
G01 X9.5075 Y38.2253 
G01 X9.5075 Y38.1999 
G00 Z2.5400 
G00 X9.5075 Y39.7747 
G01 Z-0.1778 F200.00 
G01 X9.5109 Y39.7747 F200.00 
G01 X9.9647 Y39.3209 
G01 X9.9647 Y39.3175 
G01 X9.9901 Y39.3175 
G01 X9.9901 Y39.3314 
G01 X9.5214 Y39.8001 
G01 X9.5075 Y39.8001 
G01 X9.5075 Y39.7747 
G00 Z2.5400 
G00 X8.8725 Y39.7747 
G01 Z-0.1778 F200.00 
G01 X8.8725 Y39.8001 F200.00 
G01 X8.8586 Y39.8001 
G01 X8.3899 Y39.3314 
G01 X8.3899 Y39.3175 
G01 X8.4153 Y39.3175 
G01 X8.4153 Y39.3209 
G01 X8.8691 Y39.7747 
G01 X8.8725 Y39.7747 
G00 Z2.5400 
G00 X0.8635 Y0.9463 
G01 Z-0.1778 F200.00 
G01 X0.8050 Y1.0476 F200.00 
G01 X0.7747 Y1.1607 
G01 X0.7747 Y42.8123 
G01 X0.7747 Y42.9293 
G01 X0.8050 Y43.0424 
G01 X0.8635 Y43.1437 
G01 X0.9463 Y43.2265 
G01 X1.0476 Y43.2850 
G01 X1.1607 Y43.3153 
G01 X65.0093 Y43.3153 
G01 X65.1224 Y43.2850 
G01 X65.2237 Y43.2265 
G01 X65.3065 Y43.1437 
G01 X65.3650 Y43.0424 
G01 X65.3953 Y42.9293 
G01 X65.3953 Y1.1607 
G01 X65.3650 Y1.0476 
G01 X65.3065 Y0.9463 
G01 X65.2237 Y0.8635 
G01 X65.1224 Y0.8050 
G01 X65.0093 Y0.7747 
G01 X1.1607 Y0.7747 
G01 X1.0476 Y0.8050 
G01 X0.9463 Y0.8635 
G01 X0.8635 Y0.9463 
G00 Z2.5400 
G00 X5.4938 Y3.2424 
G01 Z-0.1778 F200.00 
G01 X5.8222 Y3.1063 F200.00 
G01 X15.0036 Y3.1063 
G01 X15.0328 Y3.1101 
G01 X15.0619 Y3.1063 
G01 X15.0913 Y3.1063 
G01 X15.1197 Y3.0987 
G01 X15.1488 Y3.0949 
G01 X15.1759 Y3.0836 
G01 X15.2043 Y3.0760 
G01 X15.2298 Y3.0613 
G01 X15.2569 Y3.0501 
G01 X15.2802 Y3.0322 
G01 X15.3057 Y3.0175 
G01 X15.3265 Y2.9967 
G01 X15.3498 Y2.9788 
G01 X15.3676 Y2.9555 
G01 X15.3884 Y2.9347 
G01 X15.4031 Y2.9093 
G01 X15.4210 Y2.8860 
G01 X15.4323 Y2.8588 
G01 X15.4470 Y2.8334 
G01 X15.4546 Y2.8050 
G01 X15.5147 Y2.6598 
G01 X15.8018 Y2.3727 
G01 X16.1770 Y2.2173 
G01 X16.5830 Y2.2173 
G01 X16.9582 Y2.3727 
G01 X17.2453 Y2.6598 
G01 X17.2617 Y2.6995 
G01 X17.2974 Y2.7459 
G01 X17.3330 Y2.7923 
G01 X17.3803 Y2.8286 
G01 X17.4258 Y2.8636 
G01 X17.4860 Y2.8885 
G01 X17.5339 Y2.9084 
G01 X17.5933 Y2.9162 
G01 X17.6500 Y2.9236 
G01 X17.7117 Y2.9155 
G01 X17.7660 Y2.9084 
G01 X17.8254 Y2.8838 
G01 X17.8741 Y2.8636 
G01 X17.9206 Y2.8279 
G01 X17.9670 Y2.7923 
G01 X18.0033 Y2.7450 
G01 X18.0383 Y2.6995 
G01 X18.0547 Y2.6598 
G01 X18.3418 Y2.3727 
G01 X18.7170 Y2.2173 
G01 X19.1230 Y2.2173 
G01 X19.4982 Y2.3727 
G01 X19.7853 Y2.6598 
G01 X19.8959 Y2.9268 
G01 X19.8996 Y2.9441 
G01 X19.9182 Y2.9807 
G01 X19.9339 Y3.0186 
G01 X19.9447 Y3.0326 
G01 X19.9527 Y3.0484 
G01 X19.9802 Y3.0789 
G01 X20.0052 Y3.1114 
G01 X20.0192 Y3.1222 
G01 X20.0310 Y3.1354 
G01 X20.0655 Y3.1577 
G01 X20.0980 Y3.1827 
G01 X20.1144 Y3.1895 
G01 X20.1292 Y3.1991 
G01 X20.1682 Y3.2118 
G01 X20.2061 Y3.2275 
G01 X20.2237 Y3.2298 
G01 X20.2405 Y3.2353 
G01 X20.2815 Y3.2374 
G01 X20.3222 Y3.2428 
G01 X20.3397 Y3.2404 
G01 X20.3574 Y3.2414 
G01 X20.3975 Y3.2328 
G01 X20.4382 Y3.2275 
G01 X20.4546 Y3.2207 
G01 X20.4567 Y4.7797 
G01 X20.4382 Y4.7725 
G01 X20.3975 Y4.7672 
G01 X20.3574 Y4.7586 
G01 X20.3397 Y4.7595 
G01 X20.3222 Y4.7572 
G01 X20.2815 Y4.7626 
G01 X20.2405 Y4.7647 
G01 X20.2237 Y4.7702 
G01 X20.2061 Y4.7725 
G01 X20.1682 Y4.7882 
G01 X20.1292 Y4.8009 
G01 X20.1144 Y4.8105 
G01 X20.0980 Y4.8173 
G01 X20.0655 Y4.8423 
G01 X20.0310 Y4.8646 
G01 X20.0192 Y4.8778 
G01 X20.0052 Y4.8886 
G01 X19.9802 Y4.9211 
G01 X19.9527 Y4.9516 
G01 X19.9447 Y4.9674 
G01 X19.9339 Y4.9814 
G01 X19.9182 Y5.0193 
G01 X19.8996 Y5.0559 
G01 X19.8959 Y5.0732 
G01 X19.8587 Y5.1630 
G01 X19.8440 Y5.1885 
G01 X19.8364 Y5.2169 
G01 X19.8251 Y5.2440 
G01 X19.8213 Y5.2731 
G01 X19.8137 Y5.3015 
G01 X19.8137 Y5.3309 
G01 X19.8099 Y5.3601 
G01 X19.8137 Y5.3892 
G01 X19.8137 Y7.4242 
G01 X19.8440 Y7.5373 
G01 X19.9025 Y7.6386 
G01 X22.3061 Y10.0422 
G01 X22.3889 Y10.1250 
G01 X22.4902 Y10.1835 
G01 X22.6033 Y10.2138 
G01 X22.7203 Y10.2138 
G01 X22.8334 Y10.1835 
G01 X22.9347 Y10.1250 
G01 X23.0175 Y10.0422 
G01 X23.0760 Y9.9409 
G01 X23.1063 Y9.8278 
G01 X23.1063 Y5.3892 
G01 X23.1101 Y5.3601 
G01 X23.1063 Y5.3309 
G01 X23.1063 Y5.3015 
G01 X23.0987 Y5.2731 
G01 X23.0949 Y5.2440 
G01 X23.0836 Y5.2169 
G01 X23.0760 Y5.1885 
G01 X23.0613 Y5.1630 
G01 X23.0241 Y5.0732 
G01 X23.0204 Y5.0559 
G01 X23.0018 Y5.0193 
G01 X22.9861 Y4.9814 
G01 X22.9753 Y4.9674 
G01 X22.9673 Y4.9516 
G01 X22.9398 Y4.9211 
G01 X22.9148 Y4.8886 
G01 X22.9008 Y4.8778 
G01 X22.8889 Y4.8646 
G01 X22.8545 Y4.8423 
G01 X22.8220 Y4.8173 
G01 X22.8056 Y4.8105 
G01 X22.7908 Y4.8009 
G01 X22.7517 Y4.7882 
G01 X22.7138 Y4.7725 
G01 X22.6963 Y4.7702 
G01 X22.6795 Y4.7647 
G01 X22.6385 Y4.7626 
G01 X22.5978 Y4.7572 
G01 X22.5803 Y4.7595 
G01 X22.5626 Y4.7586 
G01 X22.5224 Y4.7672 
G01 X22.4818 Y4.7725 
G01 X22.4654 Y4.7793 
G01 X22.4633 Y3.2203 
G01 X22.4818 Y3.2275 
G01 X22.5224 Y3.2328 
G01 X22.5626 Y3.2414 
G01 X22.5803 Y3.2404 
G01 X22.5978 Y3.2428 
G01 X22.6385 Y3.2374 
G01 X22.6795 Y3.2353 
G01 X22.6963 Y3.2298 
G01 X22.7139 Y3.2275 
G01 X22.7517 Y3.2118 
G01 X22.7908 Y3.1991 
G01 X22.8056 Y3.1895 
G01 X22.8220 Y3.1827 
G01 X22.8545 Y3.1577 
G01 X22.8889 Y3.1354 
G01 X22.9008 Y3.1222 
G01 X22.9148 Y3.1114 
G01 X22.9398 Y3.0789 
G01 X22.9673 Y3.0484 
G01 X22.9753 Y3.0326 
G01 X22.9861 Y3.0186 
G01 X23.0018 Y2.9807 
G01 X23.0204 Y2.9441 
G01 X23.0241 Y2.9268 
G01 X23.1347 Y2.6598 
G01 X23.4218 Y2.3727 
G01 X23.7970 Y2.2173 
G01 X24.2030 Y2.2173 
G01 X24.5782 Y2.3727 
G01 X24.8653 Y2.6598 
G01 X24.8817 Y2.6995 
G01 X24.9174 Y2.7459 
G01 X24.9530 Y2.7923 
G01 X25.0003 Y2.8286 
G01 X25.0458 Y2.8636 
G01 X25.1060 Y2.8885 
G01 X25.1539 Y2.9084 
G01 X25.2133 Y2.9162 
G01 X25.2700 Y2.9236 
G01 X25.3317 Y2.9155 
G01 X25.3860 Y2.9084 
G01 X25.4454 Y2.8838 
G01 X25.4941 Y2.8636 
G01 X25.5406 Y2.8279 
G01 X25.5870 Y2.7923 
G01 X25.6233 Y2.7450 
G01 X25.6583 Y2.6995 
G01 X25.6747 Y2.6598 
G01 X25.9618 Y2.3727 
G01 X26.3370 Y2.2173 
G01 X26.7430 Y2.2173 
G01 X27.1182 Y2.3727 
G01 X27.4053 Y2.6598 
G01 X27.4217 Y2.6995 
G01 X27.4574 Y2.7459 
G01 X27.4930 Y2.7923 
G01 X27.5403 Y2.8286 
G01 X27.5858 Y2.8636 
G01 X27.6460 Y2.8885 
G01 X27.6939 Y2.9084 
G01 X27.7533 Y2.9162 
G01 X27.8100 Y2.9236 
G01 X27.8717 Y2.9155 
G01 X27.9260 Y2.9084 
G01 X27.9854 Y2.8838 
G01 X28.0341 Y2.8636 
G01 X28.0806 Y2.8279 
G01 X28.1270 Y2.7923 
G01 X28.1633 Y2.7450 
G01 X28.1983 Y2.6995 
G01 X28.2147 Y2.6598 
G01 X28.5018 Y2.3727 
G01 X28.8770 Y2.2173 
G01 X29.2830 Y2.2173 
G01 X29.6582 Y2.3727 
G01 X29.9453 Y2.6598 
G01 X29.9617 Y2.6995 
G01 X29.9974 Y2.7459 
G01 X30.0330 Y2.7923 
G01 X30.0803 Y2.8286 
G01 X30.1258 Y2.8636 
G01 X30.1860 Y2.8885 
G01 X30.2339 Y2.9084 
G01 X30.2933 Y2.9162 
G01 X30.3500 Y2.9236 
G01 X30.4117 Y2.9155 
G01 X30.4660 Y2.9084 
G01 X30.5254 Y2.8838 
G01 X30.5741 Y2.8636 
G01 X30.6206 Y2.8279 
G01 X30.6670 Y2.7923 
G01 X30.7033 Y2.7450 
G01 X30.7383 Y2.6995 
G01 X30.7547 Y2.6598 
G01 X31.0418 Y2.3727 
G01 X31.4170 Y2.2173 
G01 X31.8230 Y2.2173 
G01 X32.1982 Y2.3727 
G01 X32.4853 Y2.6598 
G01 X32.6407 Y3.0350 
G01 X32.6407 Y4.9650 
G01 X32.5587 Y5.1630 
G01 X32.5440 Y5.1885 
G01 X32.5364 Y5.2169 
G01 X32.5251 Y5.2440 
G01 X32.5213 Y5.2731 
G01 X32.5137 Y5.3015 
G01 X32.5137 Y5.3309 
G01 X32.5099 Y5.3601 
G01 X32.5137 Y5.3892 
G01 X32.5137 Y5.5792 
G01 X32.5105 Y5.5966 
G01 X32.5137 Y5.6375 
G01 X32.5137 Y5.6785 
G01 X32.5170 Y5.6907 
G01 X32.5179 Y5.7082 
G01 X32.5197 Y5.7139 
G01 X32.5202 Y5.7198 
G01 X32.5260 Y5.7363 
G01 X32.5268 Y5.7436 
G01 X32.5412 Y5.7811 
G01 X32.5440 Y5.7916 
G01 X32.5462 Y5.7954 
G01 X32.5581 Y5.8320 
G01 X32.5645 Y5.8419 
G01 X32.5687 Y5.8529 
G01 X32.5834 Y5.8730 
G01 X32.5882 Y5.8838 
G01 X32.6062 Y5.9061 
G01 X32.6218 Y5.9301 
G01 X32.6306 Y5.9380 
G01 X32.6452 Y5.9582 
G01 X32.6544 Y5.9656 
G01 X32.6618 Y5.9748 
G01 X32.6820 Y5.9894 
G01 X32.6899 Y5.9982 
G01 X32.7139 Y6.0138 
G01 X32.7362 Y6.0318 
G01 X32.7470 Y6.0366 
G01 X32.7671 Y6.0512 
G01 X32.7781 Y6.0555 
G01 X32.7880 Y6.0619 
G01 X32.8246 Y6.0738 
G01 X32.8284 Y6.0760 
G01 X32.8389 Y6.0788 
G01 X32.8764 Y6.0932 
G01 X32.8837 Y6.0940 
G01 X32.9002 Y6.0998 
G01 X32.9061 Y6.1003 
G01 X32.9118 Y6.1021 
G01 X32.9293 Y6.1030 
G01 X32.9415 Y6.1063 
G01 X32.9825 Y6.1063 
G01 X33.0234 Y6.1095 
G01 X33.0408 Y6.1063 
G01 X41.7775 Y6.1063 
G01 X43.3025 Y6.4096 
G01 X44.7391 Y7.0047 
G01 X46.0319 Y7.8686 
G01 X47.1210 Y8.9576 
G01 X47.1314 Y8.9681 
G01 X47.9953 Y10.2609 
G01 X48.5904 Y11.6975 
G01 X48.8937 Y13.2225 
G01 X48.8937 Y25.7775 
G01 X48.5904 Y27.3025 
G01 X47.9953 Y28.7391 
G01 X47.1314 Y30.0319 
G01 X47.1210 Y30.0424 
G01 X46.0424 Y31.1210 
G01 X46.0319 Y31.1314 
G01 X44.7391 Y31.9953 
G01 X43.3025 Y32.5904 
G01 X41.7775 Y32.8937 
G01 X40.3447 Y32.8937 
G01 X40.2316 Y32.9240 
G01 X40.1303 Y32.9825 
G01 X40.0475 Y33.0653 
G01 X39.9890 Y33.1666 
G01 X39.9587 Y33.2797 
G01 X39.9587 Y34.1515 
G01 X39.9193 Y34.2465 
G01 X39.8465 Y34.3193 
G01 X39.7515 Y34.3587 
G01 X39.3798 Y34.3587 
G01 X39.3507 Y34.3549 
G01 X39.3216 Y34.3587 
G01 X39.2922 Y34.3587 
G01 X39.2638 Y34.3663 
G01 X39.2346 Y34.3701 
G01 X39.2075 Y34.3814 
G01 X39.1791 Y34.3890 
G01 X39.1710 Y34.3937 
G01 X38.8290 Y34.3937 
G01 X38.8209 Y34.3890 
G01 X38.7925 Y34.3814 
G01 X38.7654 Y34.3701 
G01 X38.7362 Y34.3663 
G01 X38.7078 Y34.3587 
G01 X38.6784 Y34.3587 
G01 X38.6493 Y34.3549 
G01 X38.6202 Y34.3587 
G01 X38.2485 Y34.3587 
G01 X38.1535 Y34.3193 
G01 X38.0807 Y34.2465 
G01 X38.0413 Y34.1515 
G01 X38.0413 Y32.8485 
G01 X38.0967 Y32.7148 
G01 X38.1063 Y32.6999 
G01 X38.1190 Y32.6609 
G01 X38.1347 Y32.6230 
G01 X38.1370 Y32.6054 
G01 X38.2917 Y32.1296 
G01 X38.6562 Y31.6278 
G01 X38.6729 Y31.6111 
G01 X38.6905 Y31.5806 
G01 X38.7112 Y31.5521 
G01 X38.7196 Y31.5302 
G01 X38.7314 Y31.5098 
G01 X38.7405 Y31.4757 
G01 X38.7531 Y31.4429 
G01 X38.7556 Y31.4195 
G01 X38.7617 Y31.3967 
G01 X38.7617 Y31.3615 
G01 X38.7654 Y31.3265 
G01 X38.7617 Y31.3032 
G01 X38.7617 Y31.2797 
G01 X38.7526 Y31.2456 
G01 X38.7471 Y31.2109 
G01 X38.7375 Y31.1894 
G01 X38.7314 Y31.1666 
G01 X38.7138 Y31.1361 
G01 X38.6995 Y31.1039 
G01 X38.6847 Y31.0857 
G01 X38.6729 Y31.0653 
G01 X38.6480 Y31.0404 
G01 X38.6258 Y31.0130 
G01 X38.6068 Y30.9992 
G01 X38.5901 Y30.9825 
G01 X38.5596 Y30.9649 
G01 X38.5311 Y30.9442 
G01 X38.5091 Y30.9358 
G01 X38.4888 Y30.9240 
G01 X38.4547 Y30.9149 
G01 X38.4219 Y30.9022 
G01 X38.3985 Y30.8998 
G01 X38.3757 Y30.8937 
G01 X38.3405 Y30.8937 
G01 X38.3055 Y30.8900 
G01 X38.2822 Y30.8937 
G01 X37.5438 Y30.8937 
G01 X37.5293 Y30.8908 
G01 X37.4855 Y30.8937 
G01 X37.4415 Y30.8937 
G01 X37.4272 Y30.8975 
G01 X37.2033 Y30.9122 
G01 X37.1593 Y30.9122 
G01 X37.1451 Y30.9160 
G01 X37.1304 Y30.9170 
G01 X37.0887 Y30.9311 
G01 X36.5068 Y31.0870 
G01 X36.5011 Y31.0885 
G01 X36.3998 Y31.1471 
G01 X36.0124 Y31.3707 
G01 X35.9110 Y31.4292 
G01 X35.5120 Y31.8283 
G01 X35.4292 Y31.9110 
G01 X35.3707 Y32.0124 
G01 X35.1471 Y32.3998 
G01 X35.0885 Y32.5011 
G01 X34.9890 Y32.8727 
G01 X34.9587 Y32.9857 
G01 X34.9587 Y34.1515 
G01 X34.9193 Y34.2465 
G01 X34.8465 Y34.3193 
G01 X34.7515 Y34.3587 
G01 X34.3798 Y34.3587 
G01 X34.3507 Y34.3549 
G01 X34.3216 Y34.3587 
G01 X34.2922 Y34.3587 
G01 X34.2638 Y34.3663 
G01 X34.2346 Y34.3701 
G01 X34.2075 Y34.3814 
G01 X34.1791 Y34.3890 
G01 X34.1710 Y34.3937 
G01 X33.8290 Y34.3937 
G01 X33.8209 Y34.3890 
G01 X33.7925 Y34.3814 
G01 X33.7654 Y34.3701 
G01 X33.7362 Y34.3663 
G01 X33.7078 Y34.3587 
G01 X33.6784 Y34.3587 
G01 X33.6493 Y34.3549 
G01 X33.6202 Y34.3587 
G01 X33.2485 Y34.3587 
G01 X33.1535 Y34.3193 
G01 X33.0807 Y34.2465 
G01 X33.0413 Y34.1515 
G01 X33.0413 Y32.8485 
G01 X33.0807 Y32.7535 
G01 X33.1344 Y32.6998 
G01 X33.1662 Y32.6446 
G01 X33.1929 Y32.5984 
G01 X33.2011 Y32.5676 
G01 X33.2232 Y32.4854 
G01 X33.4057 Y31.8041 
G01 X33.9842 Y30.8022 
G01 X34.8022 Y29.9842 
G01 X35.2997 Y29.6969 
G01 X35.3050 Y29.6939 
G01 X35.3877 Y29.6111 
G01 X35.4463 Y29.5098 
G01 X35.4766 Y29.3967 
G01 X35.4766 Y29.2797 
G01 X35.4463 Y29.1666 
G01 X35.3877 Y29.0653 
G01 X35.3050 Y28.9825 
G01 X35.2036 Y28.9240 
G01 X35.0906 Y28.8937 
G01 X34.0459 Y28.8937 
G01 X34.0335 Y28.8911 
G01 X33.9875 Y28.8937 
G01 X33.9415 Y28.8937 
G01 X33.9292 Y28.8970 
G01 X33.5859 Y28.9163 
G01 X33.5481 Y28.9148 
G01 X33.5276 Y28.9195 
G01 X33.5067 Y28.9207 
G01 X33.4708 Y28.9325 
G01 X32.6998 Y29.1085 
G01 X32.6504 Y29.1178 
G01 X32.6428 Y29.1215 
G01 X32.6346 Y29.1233 
G01 X32.5902 Y29.1468 
G01 X31.8965 Y29.4809 
G01 X31.8802 Y29.4853 
G01 X31.8511 Y29.5021 
G01 X31.8204 Y29.5155 
G01 X31.8138 Y29.5207 
G01 X31.8062 Y29.5244 
G01 X31.7935 Y29.5353 
G01 X31.7789 Y29.5438 
G01 X31.7551 Y29.5675 
G01 X31.1400 Y30.0580 
G01 X31.0997 Y30.0878 
G01 X31.0944 Y30.0944 
G01 X31.0878 Y30.0997 
G01 X31.0580 Y30.1401 
G01 X30.5571 Y30.7681 
G01 X30.5244 Y30.8062 
G01 X30.5207 Y30.8138 
G01 X30.5155 Y30.8204 
G01 X30.4954 Y30.8664 
G01 X30.1468 Y31.5902 
G01 X30.1233 Y31.6346 
G01 X30.1215 Y31.6428 
G01 X30.1178 Y31.6504 
G01 X30.1085 Y31.6998 
G01 X29.9325 Y32.4708 
G01 X29.9207 Y32.5066 
G01 X29.9195 Y32.5277 
G01 X29.9148 Y32.5481 
G01 X29.9163 Y32.5858 
G01 X29.9150 Y32.6091 
G01 X29.9095 Y32.6506 
G01 X29.9117 Y32.6673 
G01 X29.9107 Y32.6841 
G01 X29.9193 Y32.7251 
G01 X29.9248 Y32.7666 
G01 X29.9312 Y32.7822 
G01 X29.9346 Y32.7986 
G01 X29.9535 Y32.8360 
G01 X29.9587 Y32.8485 
G01 X29.9587 Y34.1515 
G01 X29.9193 Y34.2465 
G01 X29.8465 Y34.3193 
G01 X29.7515 Y34.3587 
G01 X28.2485 Y34.3587 
G01 X28.1535 Y34.3193 
G01 X28.0807 Y34.2465 
G01 X28.0413 Y34.1515 
G01 X28.0413 Y32.8485 
G01 X28.0613 Y32.8002 
G01 X28.0760 Y32.7748 
G01 X28.0836 Y32.7464 
G01 X28.0949 Y32.7192 
G01 X28.0987 Y32.6901 
G01 X28.1063 Y32.6617 
G01 X28.1063 Y32.6323 
G01 X28.1101 Y32.6032 
G01 X28.1063 Y32.5741 
G01 X28.1063 Y32.3359 
G01 X28.4018 Y31.0411 
G01 X28.9781 Y29.8445 
G01 X29.8061 Y28.8062 
G01 X30.8445 Y27.9781 
G01 X32.0411 Y27.4018 
G01 X33.3359 Y27.1063 
G01 X40.9562 Y27.1063 
G01 X40.9707 Y27.1092 
G01 X41.0145 Y27.1063 
G01 X41.0585 Y27.1063 
G01 X41.0728 Y27.1025 
G01 X41.2315 Y27.0921 
G01 X41.2754 Y27.0921 
G01 X41.2897 Y27.0883 
G01 X41.3044 Y27.0873 
G01 X41.3460 Y27.0732 
G01 X41.6945 Y26.9798 
G01 X41.8075 Y26.9495 
G01 X42.1832 Y26.7326 
G01 X42.2846 Y26.6741 
G01 X42.5913 Y26.3673 
G01 X42.6741 Y26.2846 
G01 X42.7326 Y26.1832 
G01 X42.9495 Y25.8075 
G01 X42.9798 Y25.6945 
G01 X43.0732 Y25.3460 
G01 X43.0873 Y25.3044 
G01 X43.0883 Y25.2897 
G01 X43.0921 Y25.2754 
G01 X43.0921 Y25.2315 
G01 X43.1025 Y25.0728 
G01 X43.1063 Y25.0585 
G01 X43.1063 Y25.0145 
G01 X43.1092 Y24.9707 
G01 X43.1063 Y24.9562 
G01 X43.1063 Y14.0438 
G01 X43.1092 Y14.0293 
G01 X43.1063 Y13.9854 
G01 X43.1063 Y13.9415 
G01 X43.1025 Y13.9272 
G01 X43.0921 Y13.7685 
G01 X43.0921 Y13.7246 
G01 X43.0883 Y13.7103 
G01 X43.0873 Y13.6956 
G01 X43.0732 Y13.6540 
G01 X42.9798 Y13.3055 
G01 X42.9495 Y13.1925 
G01 X42.7326 Y12.8168 
G01 X42.6741 Y12.7154 
G01 X42.3673 Y12.4087 
G01 X42.2846 Y12.3259 
G01 X42.1832 Y12.2674 
G01 X41.8075 Y12.0505 
G01 X41.6945 Y12.0202 
G01 X41.3460 Y11.9268 
G01 X41.3044 Y11.9127 
G01 X41.2897 Y11.9117 
G01 X41.2754 Y11.9079 
G01 X41.2315 Y11.9079 
G01 X41.0728 Y11.8975 
G01 X41.0585 Y11.8937 
G01 X41.0145 Y11.8937 
G01 X40.9707 Y11.8908 
G01 X40.9562 Y11.8937 
G01 X33.1722 Y11.8937 
G01 X33.0591 Y11.9240 
G01 X32.9578 Y11.9825 
G01 X32.8763 Y12.0640 
G01 X32.8165 Y12.1666 
G01 X32.7862 Y12.2797 
G01 X32.7862 Y12.3967 
G01 X32.8165 Y12.5098 
G01 X32.8750 Y12.6111 
G01 X32.9578 Y12.6939 
G01 X34.4686 Y14.2047 
G01 X34.5514 Y14.2875 
G01 X34.6527 Y14.3460 
G01 X34.7658 Y14.3763 
G01 X34.9483 Y14.3763 
G01 X35.0431 Y14.3509 
G01 X35.8607 Y14.3509 
G01 X36.3991 Y14.8893 
G01 X36.3991 Y15.6507 
G01 X36.1937 Y15.8561 
G01 X36.1109 Y15.9389 
G01 X36.0524 Y16.0402 
G01 X36.0299 Y16.1243 
G01 X36.0221 Y16.1533 
G01 X36.0221 Y16.2703 
G01 X36.0524 Y16.3834 
G01 X36.1109 Y16.4847 
G01 X36.1937 Y16.5675 
G01 X36.2950 Y16.6260 
G01 X36.3791 Y16.6485 
G01 X36.4081 Y16.6563 
G01 X39.4407 Y16.6563 
G01 X39.5538 Y16.6260 
G01 X39.6551 Y16.5675 
G01 X39.7379 Y16.4847 
G01 X40.0709 Y16.1517 
G01 X40.1537 Y16.0690 
G01 X40.2122 Y15.9676 
G01 X40.2347 Y15.8836 
G01 X40.2425 Y15.8546 
G01 X40.2425 Y15.7414 
G01 X40.7175 Y15.7414 
G01 X40.7175 Y15.8546 
G01 X40.7478 Y15.9676 
G01 X40.7496 Y15.9707 
G01 X40.8063 Y16.0690 
G01 X41.5388 Y16.8014 
G01 X41.5388 Y17.6786 
G01 X40.9186 Y18.2988 
G01 X40.8768 Y18.2988 
G01 X40.8477 Y18.2950 
G01 X40.8185 Y18.2988 
G01 X40.7891 Y18.2988 
G01 X40.7608 Y18.3064 
G01 X40.7316 Y18.3102 
G01 X40.7045 Y18.3215 
G01 X40.6761 Y18.3291 
G01 X40.6506 Y18.3438 
G01 X40.4094 Y18.4437 
G01 X31.7597 Y18.4437 
G01 X31.6466 Y18.4740 
G01 X31.5453 Y18.5325 
G01 X31.4625 Y18.6153 
G01 X31.4040 Y18.7166 
G01 X31.3737 Y18.8297 
G01 X31.3737 Y21.9413 
G01 X31.3737 Y22.0005 
G01 X31.3737 Y22.0583 
G01 X31.3869 Y22.1075 
G01 X31.3991 Y22.1531 
G01 X31.3991 Y22.9707 
G01 X31.0637 Y23.3061 
G01 X30.9809 Y23.3889 
G01 X30.9224 Y23.4902 
G01 X30.8999 Y23.5743 
G01 X30.8921 Y23.6033 
G01 X30.8921 Y23.7203 
G01 X30.9224 Y23.8334 
G01 X30.9809 Y23.9347 
G01 X31.0637 Y24.0175 
G01 X31.1650 Y24.0760 
G01 X31.2491 Y24.0985 
G01 X31.2781 Y24.1063 
G01 X34.2003 Y24.1063 
G01 X34.3134 Y24.0760 
G01 X34.4147 Y24.0175 
G01 X34.4975 Y23.9347 
G01 X34.5560 Y23.8334 
G01 X34.5863 Y23.7203 
G01 X34.5863 Y23.5387 
G01 X34.5863 Y23.4795 
G01 X34.5863 Y23.4217 
G01 X34.5731 Y23.3724 
G01 X34.5609 Y23.3269 
G01 X34.5609 Y22.5093 
G01 X35.0993 Y21.9709 
G01 X35.8607 Y21.9709 
G01 X36.3991 Y22.5093 
G01 X36.3991 Y23.3269 
G01 X36.3867 Y23.3732 
G01 X36.3737 Y23.4217 
G01 X36.3737 Y23.4808 
G01 X36.3737 Y23.5387 
G01 X36.3737 Y23.7203 
G01 X36.4040 Y23.8334 
G01 X36.4625 Y23.9347 
G01 X36.5453 Y24.0175 
G01 X36.6466 Y24.0760 
G01 X36.7597 Y24.1063 
G01 X39.0352 Y24.1063 
G01 X39.1483 Y24.0760 
G01 X39.2496 Y24.0175 
G01 X39.3324 Y23.9347 
G01 X39.3909 Y23.8334 
G01 X39.4208 Y23.7218 
G01 X40.0709 Y23.0717 
G01 X40.1537 Y22.9890 
G01 X40.2122 Y22.8876 
G01 X40.2425 Y22.7746 
G01 X40.2425 Y22.6614 
G01 X40.7175 Y22.6614 
G01 X40.7175 Y22.7746 
G01 X40.7478 Y22.8876 
G01 X40.7496 Y22.8907 
G01 X40.8063 Y22.9890 
G01 X41.5388 Y23.7214 
G01 X41.5388 Y24.5986 
G01 X40.9186 Y25.2188 
G01 X40.8107 Y25.2188 
G01 X40.7791 Y25.2273 
G01 X40.6976 Y25.2491 
G01 X40.5963 Y25.3076 
G01 X40.5135 Y25.3904 
G01 X40.4180 Y25.4859 
G01 X40.3885 Y25.5153 
G01 X39.9567 Y25.7646 
G01 X39.4751 Y25.8937 
G01 X28.8222 Y25.8937 
G01 X28.4938 Y25.7576 
G01 X28.2212 Y25.4851 
G01 X26.5546 Y23.8185 
G01 X26.4718 Y23.7357 
G01 X26.3705 Y23.6772 
G01 X26.2574 Y23.6469 
G01 X25.7918 Y23.6469 
G01 X25.3887 Y23.4799 
G01 X25.0801 Y23.1713 
G01 X24.9131 Y22.7682 
G01 X24.9131 Y22.3318 
G01 X25.0801 Y21.9287 
G01 X25.3887 Y21.6201 
G01 X25.4903 Y21.5780 
G01 X25.5294 Y21.5653 
G01 X25.5442 Y21.5557 
G01 X25.5605 Y21.5489 
G01 X25.5931 Y21.5239 
G01 X25.6276 Y21.5015 
G01 X25.6394 Y21.4884 
G01 X25.6534 Y21.4777 
G01 X25.6784 Y21.4451 
G01 X25.7059 Y21.4145 
G01 X25.7139 Y21.3988 
G01 X25.7246 Y21.3848 
G01 X25.7403 Y21.3469 
G01 X25.7590 Y21.3102 
G01 X25.7627 Y21.2930 
G01 X25.7694 Y21.2767 
G01 X25.7748 Y21.2360 
G01 X25.7833 Y21.1958 
G01 X25.7824 Y21.1781 
G01 X25.7847 Y21.1606 
G01 X25.7793 Y21.1199 
G01 X25.7786 Y21.1063 
G01 X25.9250 Y21.1295 
G01 X26.0950 Y21.1295 
G01 X26.2414 Y21.1063 
G01 X26.2406 Y21.1199 
G01 X26.2353 Y21.1606 
G01 X26.2376 Y21.1781 
G01 X26.2367 Y21.1958 
G01 X26.2452 Y21.2360 
G01 X26.2506 Y21.2767 
G01 X26.2573 Y21.2930 
G01 X26.2610 Y21.3102 
G01 X26.2797 Y21.3469 
G01 X26.2954 Y21.3848 
G01 X26.3061 Y21.3988 
G01 X26.3141 Y21.4145 
G01 X26.3416 Y21.4451 
G01 X26.3666 Y21.4777 
G01 X26.3806 Y21.4884 
G01 X26.3924 Y21.5015 
G01 X26.4269 Y21.5239 
G01 X26.4595 Y21.5489 
G01 X26.4758 Y21.5557 
G01 X26.4906 Y21.5653 
G01 X26.5296 Y21.5780 
G01 X26.6313 Y21.6201 
G01 X26.6453 Y21.6341 
G01 X26.7281 Y21.7168 
G01 X26.7832 Y21.7487 
G01 X26.8294 Y21.7754 
G01 X26.8531 Y21.7817 
G01 X26.8667 Y21.7853 
G01 X27.2985 Y22.0347 
G01 X27.4335 Y22.1696 
G01 X27.6217 Y22.3578 
G01 X29.1986 Y23.9347 
G01 X29.2814 Y24.0175 
G01 X29.3827 Y24.0760 
G01 X29.4958 Y24.1063 
G01 X29.6819 Y24.1063 
G01 X29.7135 Y24.0978 
G01 X29.7950 Y24.0760 
G01 X29.8963 Y24.0175 
G01 X29.9791 Y23.9347 
G01 X30.0363 Y23.8356 
G01 X30.0679 Y23.7203 
G01 X30.0679 Y23.6033 
G01 X30.0594 Y23.5717 
G01 X30.0376 Y23.4902 
G01 X29.9791 Y23.3889 
G01 X29.8963 Y23.3061 
G01 X29.5609 Y22.9707 
G01 X29.5609 Y22.1531 
G01 X29.5733 Y22.1068 
G01 X29.5863 Y22.0583 
G01 X29.5863 Y21.9992 
G01 X29.5863 Y21.9413 
G01 X29.5863 Y18.8297 
G01 X29.5560 Y18.7166 
G01 X29.4975 Y18.6153 
G01 X29.4147 Y18.5325 
G01 X29.3134 Y18.4740 
G01 X29.2003 Y18.4437 
G01 X26.8363 Y18.4437 
G01 X26.8072 Y18.4399 
G01 X26.7780 Y18.4437 
G01 X26.7487 Y18.4437 
G01 X26.7203 Y18.4513 
G01 X26.6911 Y18.4551 
G01 X26.6640 Y18.4664 
G01 X26.6356 Y18.4740 
G01 X26.6102 Y18.4887 
G01 X26.5295 Y18.5221 
G01 X26.4904 Y18.5348 
G01 X26.4757 Y18.5444 
G01 X26.4595 Y18.5511 
G01 X26.4268 Y18.5762 
G01 X26.3923 Y18.5986 
G01 X26.3805 Y18.6117 
G01 X26.3666 Y18.6223 
G01 X26.3415 Y18.6550 
G01 X26.3140 Y18.6856 
G01 X26.3060 Y18.7013 
G01 X26.2954 Y18.7152 
G01 X26.2796 Y18.7532 
G01 X26.2609 Y18.7899 
G01 X26.2573 Y18.8071 
G01 X26.2506 Y18.8233 
G01 X26.2452 Y18.8642 
G01 X26.2367 Y18.9044 
G01 X26.2376 Y18.9220 
G01 X26.2353 Y18.9394 
G01 X26.2407 Y18.9802 
G01 X26.2414 Y18.9937 
G01 X26.0950 Y18.9705 
G01 X25.9250 Y18.9705 
G01 X25.7786 Y18.9937 
G01 X25.7793 Y18.9802 
G01 X25.7847 Y18.9394 
G01 X25.7824 Y18.9220 
G01 X25.7833 Y18.9044 
G01 X25.7748 Y18.8642 
G01 X25.7694 Y18.8233 
G01 X25.7627 Y18.8071 
G01 X25.7591 Y18.7899 
G01 X25.7404 Y18.7532 
G01 X25.7246 Y18.7152 
G01 X25.7140 Y18.7013 
G01 X25.7060 Y18.6856 
G01 X25.6785 Y18.6550 
G01 X25.6534 Y18.6224 
G01 X25.6395 Y18.6117 
G01 X25.6277 Y18.5986 
G01 X25.5932 Y18.5762 
G01 X25.5605 Y18.5511 
G01 X25.5443 Y18.5444 
G01 X25.5296 Y18.5348 
G01 X25.4905 Y18.5221 
G01 X25.3887 Y18.4799 
G01 X25.0801 Y18.1713 
G01 X24.9131 Y17.7682 
G01 X24.9131 Y17.3318 
G01 X25.0801 Y16.9287 
G01 X25.3887 Y16.6201 
G01 X25.4368 Y16.6001 
G01 X25.4703 Y16.5863 
G01 X25.5449 Y16.5554 
G01 X25.5550 Y16.5476 
G01 X25.6378 Y16.4841 
G01 X25.7039 Y16.3979 
G01 X25.7090 Y16.3913 
G01 X25.7394 Y16.3180 
G01 X25.7538 Y16.2831 
G01 X25.7612 Y16.2269 
G01 X25.7691 Y16.1671 
G01 X25.7609 Y16.1047 
G01 X25.7538 Y16.0511 
G01 X25.7388 Y16.0149 
G01 X25.7090 Y15.9429 
G01 X25.7013 Y15.9328 
G01 X25.6378 Y15.8501 
G01 X25.5516 Y15.7840 
G01 X25.5449 Y15.7788 
G01 X25.4938 Y15.7576 
G01 X25.2212 Y15.4851 
G01 X23.5849 Y13.8488 
G01 X23.5021 Y13.7660 
G01 X23.4008 Y13.7075 
G01 X23.2877 Y13.6772 
G01 X23.1707 Y13.6772 
G01 X23.0576 Y13.7075 
G01 X22.9563 Y13.7660 
G01 X22.8735 Y13.8488 
G01 X22.8150 Y13.9501 
G01 X22.7847 Y14.0632 
G01 X22.7847 Y14.3159 
G01 X22.6302 Y14.8924 
G01 X22.3318 Y15.4093 
G01 X21.9098 Y15.8313 
G01 X21.3929 Y16.1297 
G01 X20.8164 Y16.2842 
G01 X16.2036 Y16.2842 
G01 X15.6271 Y16.1297 
G01 X15.1102 Y15.8313 
G01 X14.6882 Y15.4093 
G01 X14.3898 Y14.8924 
G01 X14.2353 Y14.3159 
G01 X14.2353 Y13.7191 
G01 X14.3824 Y13.1703 
G01 X14.4126 Y13.0572 
G01 X14.4126 Y12.9402 
G01 X14.4042 Y12.9086 
G01 X14.3824 Y12.8271 
G01 X14.3256 Y12.7288 
G01 X14.3238 Y12.7258 
G01 X14.2411 Y12.6430 
G01 X14.1419 Y12.5858 
G01 X14.0267 Y12.5542 
G01 X13.9096 Y12.5542 
G01 X13.8780 Y12.5627 
G01 X13.7966 Y12.5845 
G01 X13.6983 Y12.6412 
G01 X13.6952 Y12.6430 
G01 X13.6125 Y12.7258 
